;FLAVOR:Marlin
;TIME:11710
;Filament used: 11.4278m
;Layer height: 0.2
;MINX:31.903
;MINY:35.603
;MINZ:0.2
;MAXX:147.997
;MAXY:144.397
;MAXZ:7.4
;TARGET_MACHINE.NAME:Kingroon KP3S
;Generated with Cura_SteamEngine 5.8.1
M140 S75
M105
M190 S75
M104 S220
M105
M109 S220
M82 ;absolute extrusion mode
G28 ; home all axes
 M117 Purge extruder
 G92 E0 ; reset extruder
 G1 Z1.0 F3000 ; move z up little to prevent scratching of surface
 G1 X2 Y20 Z0.3 F5000.0 ; move to start-line position
 G1 X2 Y175.0 Z0.3 F1500.0 E15 ; draw 1st line
 G1 X2 Y175.0 Z0.4 F5000.0 ; move to side a little
 G1 X2 Y20 Z0.4 F1500.0 E30 ; draw 2nd line
 G92 E0 ; reset extruder
 G1 Z1.0 F3000 ; move z up little to prevent scratching of surface
G92 E0
G92 E0
G1 F3000 E-6
;LAYER_COUNT:35
;LAYER:0
M107
G1 F240 Z0.6
G0 F6000 X38.547 Y39.164 Z0.6
;TYPE:SKIRT
G1 F240 Z0.2
G1 F3000 E0
G1 F900 X39.272 Y38.437 E0.06694
G1 X39.952 Y37.87 E0.12466
G1 X40.764 Y37.302 E0.18927
G1 X41.437 Y36.908 E0.24011
G1 X42.549 Y36.387 E0.32017
G1 X43.201 Y36.152 E0.36536
G1 X44.174 Y35.882 E0.43119
G1 X45.312 Y35.68 E0.50654
G1 X45.778 Y35.635 E0.53707
G1 X137.121 Y35.603 E6.49231
G1 X138.272 Y35.666 E6.56747
G1 X138.979 Y35.769 E6.61405
G1 X140.331 Y36.099 E6.70478
G1 X141.38 Y36.484 E6.77763
G1 X142.499 Y37.038 E6.85904
G1 X143.249 Y37.5 E6.91647
G1 X143.609 Y37.756 E6.94527
G1 X144.499 Y38.508 E7.02123
G1 X145.339 Y39.377 E7.10003
G1 X145.86 Y40.028 E7.15439
G1 X146.534 Y41.046 E7.23399
G1 X146.79 Y41.524 E7.26934
G1 X147.342 Y42.789 E7.35933
G1 X147.572 Y43.498 E7.40792
G1 X147.825 Y44.597 E7.48145
G1 X147.945 Y45.489 E7.54013
G1 X147.997 Y46.5 E7.60613
G1 X147.978 Y133.957 E13.30802
G1 X147.8 Y135.54 E13.41188
G1 X147.592 Y136.425 E13.47115
G1 X147.139 Y137.714 E13.56022
G1 X146.509 Y138.995 E13.65329
G1 X146.166 Y139.55 E13.69583
G1 X145.664 Y140.233 E13.75109
G1 X144.912 Y141.095 E13.82567
G1 X144.454 Y141.535 E13.86708
G1 X143.458 Y142.344 E13.95074
G1 X142.534 Y142.948 E14.02271
G1 X141.996 Y143.231 E14.06234
G1 X141.183 Y143.598 E14.1205
G1 X139.848 Y144.04 E14.21218
G1 X139.061 Y144.215 E14.26474
G1 X138.109 Y144.345 E14.32739
G1 X137.1 Y144.397 E14.39326
G1 X45.81 Y144.36 E20.34505
G1 X44.695 Y144.223 E20.41829
G1 X43.589 Y143.967 E20.4923
G1 X42.822 Y143.72 E20.54484
G1 X42.149 Y143.442 E20.59231
G1 X41.109 Y142.911 E20.66844
G1 X40.547 Y142.563 E20.71154
G1 X39.855 Y142.053 E20.76758
G1 X39 Y141.306 E20.8416
G1 X38.549 Y140.845 E20.88365
G1 X38.03 Y140.226 E20.93631
G1 X37.419 Y139.358 E21.00552
G1 X36.853 Y138.369 E21.07981
G1 X36.57 Y137.764 E21.12336
G1 X36.263 Y136.947 E21.18026
G1 X36.019 Y136.085 E21.23867
G1 X35.78 Y134.797 E21.32407
G1 X35.735 Y134.336 E21.35427
G1 X35.703 Y99.591 E23.61953
G1 X35.589 Y99.506 E23.6288
G1 X35.141 Y99.116 E23.66752
G1 X34.308 Y98.265 E23.74516
G1 X33.882 Y97.733 E23.78959
G1 X33.256 Y96.781 E23.86388
G1 X32.802 Y95.908 E23.92803
G1 X32.404 Y94.889 E23.99935
G1 X32.152 Y93.977 E24.06104
G1 X31.991 Y93.129 E24.11731
G1 X31.953 Y92.797 E24.1391
G1 X31.903 Y91.76 E24.20679
G1 X31.912 Y87.973 E24.45369
G1 X31.942 Y87.496 E24.48485
G1 X32.064 Y86.642 E24.54109
G1 X32.292 Y85.676 E24.6058
G1 X32.58 Y84.815 E24.66499
G1 X33.001 Y83.874 E24.7322
G1 X33.241 Y83.436 E24.76477
G1 X34.07 Y82.227 E24.86034
G1 X34.514 Y81.706 E24.90497
G1 X35.296 Y80.949 E24.97593
G1 X35.703 Y80.624 E25.00988
G1 X35.737 Y45.727 E27.28505
G1 X35.833 Y44.856 E27.34218
G1 X36.041 Y43.833 E27.41024
G1 X36.4 Y42.666 E27.48984
G1 X36.614 Y42.144 E27.52662
G1 X36.986 Y41.381 E27.58196
G1 X37.621 Y40.326 E27.66224
G1 X38.014 Y39.79 E27.70558
G1 X38.547 Y39.164 E27.75918
G0 F6000 X39.1 Y39.635
G1 F900 X39.739 Y38.993 E27.81824
G1 X40.369 Y38.464 E27.87187
G1 X41.131 Y37.929 E27.93257
G1 X41.804 Y37.535 E27.98341
G1 X42.797 Y37.069 E28.05493
G1 X43.395 Y36.852 E28.0964
G1 X44.368 Y36.582 E28.16224
G1 X45.382 Y36.403 E28.22937
G1 X45.848 Y36.358 E28.25989
G1 X137.121 Y36.329 E34.21057
G1 X138.232 Y36.391 E34.28312
G1 X138.871 Y36.487 E34.32525
G1 X140.081 Y36.781 E34.40643
G1 X141.13 Y37.166 E34.47928
G1 X142.119 Y37.657 E34.55127
G1 X142.828 Y38.092 E34.6055
G1 X143.188 Y38.348 E34.6343
G1 X143.978 Y39.014 E34.70167
G1 X144.772 Y39.831 E34.77594
G1 X145.293 Y40.482 E34.83031
G1 X145.894 Y41.389 E34.90124
G1 X146.15 Y41.867 E34.93659
G1 X146.651 Y43.013 E35.01814
G1 X146.881 Y43.722 E35.06673
G1 X147.106 Y44.696 E35.13191
G1 X147.22 Y45.527 E35.18659
G1 X147.271 Y46.5 E35.25012
G1 X147.252 Y133.957 E40.95201
G1 X147.092 Y135.378 E41.04524
G1 X146.907 Y136.184 E41.09915
G1 X146.454 Y137.473 E41.18823
G1 X145.891 Y138.613 E41.27112
G1 X145.548 Y139.168 E41.31366
G1 X145.116 Y139.757 E41.36128
G1 X144.407 Y140.573 E41.43176
G1 X143.996 Y140.971 E41.46906
G1 X143 Y141.78 E41.55272
G1 X142.194 Y142.306 E41.61546
G1 X141.697 Y142.569 E41.65212
G1 X140.884 Y142.936 E41.71028
G1 X139.69 Y143.331 E41.79227
G1 X138.903 Y143.506 E41.84484
G1 X138.071 Y143.62 E41.89959
G1 X137.1 Y143.671 E41.96298
G1 X45.896 Y143.639 E47.90916
G1 X44.857 Y143.515 E47.97738
G1 X43.812 Y143.276 E48.04727
G1 X43.045 Y143.029 E48.09981
G1 X42.428 Y142.772 E48.14338
G1 X41.489 Y142.292 E48.21214
G1 X40.976 Y141.977 E48.25139
G1 X40.332 Y141.506 E48.3034
G1 X39.518 Y140.797 E48.37378
G1 X39.104 Y140.376 E48.41228
G1 X38.624 Y139.808 E48.46076
G1 X38.013 Y138.94 E48.52997
G1 X37.511 Y138.061 E48.59596
G1 X37.228 Y137.456 E48.63951
G1 X36.962 Y136.749 E48.68876
G1 X36.718 Y135.887 E48.74716
G1 X36.503 Y134.726 E48.82414
G1 X36.458 Y134.265 E48.85434
G1 X36.429 Y99.217 E51.13935
G1 X36.064 Y98.957 E51.16857
G1 X35.66 Y98.608 E51.20337
G1 X34.827 Y97.757 E51.28101
G1 X34.489 Y97.334 E51.31631
G1 X33.863 Y96.382 E51.3906
G1 X33.447 Y95.575 E51.44979
G1 X33.104 Y94.696 E51.5113
G1 X32.852 Y93.784 E51.57299
G1 X32.712 Y93.041 E51.62229
G1 X32.678 Y92.761 E51.64067
G1 X32.629 Y91.762 E51.70588
G1 X32.637 Y88.019 E51.94992
G1 X32.667 Y87.542 E51.98108
G1 X32.771 Y86.809 E52.02934
G1 X32.999 Y85.843 E52.09405
G1 X33.268 Y85.048 E52.14877
G1 X33.638 Y84.223 E52.20772
G1 X33.878 Y83.785 E52.24028
G1 X34.623 Y82.698 E52.3262
G1 X35.067 Y82.177 E52.37083
G1 X35.749 Y81.516 E52.43275
G1 X36.429 Y80.973 E52.48948
G1 X36.459 Y45.807 E54.78218
G1 X36.555 Y44.936 E54.83931
G1 X36.752 Y43.98 E54.90295
G1 X37.093 Y42.881 E54.97797
G1 X37.267 Y42.462 E55.00755
G1 X37.639 Y41.699 E55.06289
G1 X38.207 Y40.754 E55.13478
G1 X38.567 Y40.261 E55.17458
G1 X39.1 Y39.635 E55.22818
G0 F6000 X39.653 Y40.106
G1 F900 X40.208 Y39.547 E55.27954
G1 X40.787 Y39.057 E55.32899
G1 X41.498 Y38.556 E55.38569
G1 X42.171 Y38.162 E55.43654
G1 X43.104 Y37.727 E55.50365
G1 X43.589 Y37.552 E55.53727
G1 X44.562 Y37.282 E55.6031
G1 X45.452 Y37.126 E55.66201
G1 X45.918 Y37.081 E55.69253
G1 X137.121 Y37.055 E61.63865
G1 X138.191 Y37.116 E61.70853
G1 X138.702 Y37.193 E61.74222
G1 X139.831 Y37.463 E61.8179
G1 X140.88 Y37.848 E61.89075
G1 X141.74 Y38.276 E61.95338
G1 X142.407 Y38.684 E62.00436
G1 X142.767 Y38.94 E62.03316
G1 X143.459 Y39.522 E62.09211
G1 X144.205 Y40.285 E62.16168
G1 X144.726 Y40.936 E62.21604
G1 X145.254 Y41.732 E62.27832
G1 X145.51 Y42.21 E62.31367
G1 X145.96 Y43.237 E62.38677
G1 X146.19 Y43.946 E62.43537
G1 X146.387 Y44.797 E62.49232
G1 X146.495 Y45.566 E62.54294
G1 X146.545 Y46.5 E62.60392
G1 X146.53 Y133.878 E68.30067
G1 X146.384 Y135.216 E68.38842
G1 X146.199 Y136.022 E68.44233
G1 X145.802 Y137.153 E68.52048
G1 X145.273 Y138.231 E68.59877
G1 X144.93 Y138.786 E68.6413
G1 X144.567 Y139.282 E68.68138
G1 X143.899 Y140.054 E68.74793
G1 X143.538 Y140.407 E68.78085
G1 X142.542 Y141.216 E68.86451
G1 X141.8 Y141.696 E68.92213
G1 X141.398 Y141.907 E68.95173
G1 X140.585 Y142.274 E69.00988
G1 X139.53 Y142.623 E69.08233
G1 X138.802 Y142.787 E69.13098
G1 X138.032 Y142.895 E69.18167
G1 X137.1 Y142.945 E69.24252
G1 X45.979 Y142.918 E75.1833
G1 X45.017 Y142.807 E75.24643
G1 X44.035 Y142.585 E75.31207
G1 X43.268 Y142.338 E75.36461
G1 X42.757 Y142.125 E75.4007
G1 X41.869 Y141.673 E75.46566
G1 X41.356 Y141.358 E75.50491
G1 X40.808 Y140.958 E75.54914
G1 X40.036 Y140.288 E75.61579
G1 X39.622 Y139.867 E75.65428
G1 X39.218 Y139.39 E75.69504
G1 X38.607 Y138.522 E75.76424
G1 X38.169 Y137.753 E75.82194
G1 X37.886 Y137.148 E75.86548
G1 X37.661 Y136.551 E75.90708
G1 X37.417 Y135.689 E75.96549
G1 X37.226 Y134.655 E76.03404
G1 X37.181 Y134.194 E76.06424
G1 X37.155 Y98.84 E78.3692
G1 X36.536 Y98.405 E78.41852
G1 X36.179 Y98.1 E78.44914
G1 X35.346 Y97.249 E78.52677
G1 X35.096 Y96.935 E78.55294
G1 X34.47 Y95.983 E78.62723
G1 X34.094 Y95.245 E78.68123
G1 X33.803 Y94.501 E78.73331
G1 X33.565 Y93.649 E78.79098
G1 X33.433 Y92.953 E78.83717
G1 X33.399 Y92.673 E78.85556
G1 X33.355 Y91.763 E78.91496
G1 X33.362 Y88.065 E79.15605
G1 X33.392 Y87.588 E79.18721
G1 X33.478 Y86.974 E79.22764
G1 X33.687 Y86.076 E79.28775
G1 X33.956 Y85.281 E79.34246
G1 X34.275 Y84.572 E79.39315
G1 X34.515 Y84.134 E79.42571
G1 X35.176 Y83.169 E79.50197
G1 X35.62 Y82.648 E79.5466
G1 X36.203 Y82.083 E79.59953
G1 X36.855 Y81.561 E79.65399
G1 X37.155 Y81.361 E79.67749
G1 X37.181 Y45.887 E81.99027
G1 X37.277 Y45.016 E82.0474
G1 X37.445 Y44.195 E82.10204
G1 X37.786 Y43.096 E82.17706
G1 X37.92 Y42.78 E82.19944
G1 X38.292 Y42.017 E82.25478
G1 X38.795 Y41.18 E82.31845
G1 X39.12 Y40.732 E82.35453
G1 X39.653 Y40.106 E82.40813
G0 F6000 X40.206 Y40.577
G1 F900 X40.722 Y40.06 E82.45576
G1 X41.207 Y39.649 E82.4972
G1 X41.865 Y39.183 E82.54977
G1 X42.538 Y38.789 E82.60061
G1 X43.353 Y38.409 E82.65924
G1 X43.783 Y38.252 E82.68909
G1 X44.756 Y37.982 E82.75492
G1 X45.522 Y37.849 E82.80561
G1 X45.988 Y37.804 E82.83613
G1 X137.121 Y37.781 E88.77768
G1 X138.087 Y37.835 E88.84076
G1 X138.536 Y37.9 E88.87034
G1 X139.581 Y38.145 E88.94032
G1 X140.63 Y38.53 E89.01317
G1 X141.362 Y38.896 E89.06653
G1 X141.986 Y39.276 E89.11416
G1 X142.346 Y39.532 E89.14296
G1 X142.94 Y40.03 E89.1935
G1 X143.686 Y40.793 E89.26307
G1 X144.121 Y41.337 E89.30848
G1 X144.649 Y42.133 E89.37075
G1 X144.846 Y42.504 E89.39814
G1 X145.269 Y43.461 E89.46636
G1 X145.499 Y44.17 E89.51495
G1 X145.668 Y44.901 E89.56387
G1 X145.77 Y45.606 E89.61031
G1 X145.819 Y46.5 E89.66868
G1 X145.808 Y133.802 E95.36047
G1 X145.676 Y135.054 E95.44255
G1 X145.491 Y135.86 E95.49646
G1 X145.149 Y136.835 E95.56383
G1 X144.655 Y137.849 E95.63736
G1 X144.312 Y138.404 E95.6799
G1 X144.017 Y138.808 E95.71251
G1 X143.388 Y139.538 E95.77534
G1 X143.08 Y139.843 E95.8036
G1 X142.084 Y140.652 E95.88726
G1 X141.46 Y141.054 E95.93565
G1 X141.099 Y141.245 E95.96228
G1 X140.286 Y141.612 E96.02043
G1 X139.368 Y141.915 E96.08346
G1 X138.698 Y142.068 E96.12826
G1 X137.992 Y142.17 E96.17477
G1 X137.1 Y142.219 E96.23301
G1 X46.059 Y142.196 E102.16857
G1 X45.175 Y142.098 E102.22656
G1 X44.255 Y141.893 E102.28801
G1 X43.545 Y141.667 E102.33659
G1 X43.085 Y141.477 E102.36903
G1 X42.249 Y141.054 E102.43012
G1 X41.736 Y140.739 E102.46937
G1 X41.283 Y140.409 E102.50591
G1 X40.554 Y139.779 E102.56872
G1 X40.14 Y139.358 E102.60722
G1 X39.774 Y138.923 E102.64428
G1 X39.237 Y138.161 E102.70506
G1 X38.827 Y137.445 E102.75885
G1 X38.544 Y136.84 E102.8024
G1 X38.36 Y136.353 E102.83634
G1 X38.116 Y135.491 E102.89475
G1 X37.949 Y134.584 E102.95487
G1 X37.904 Y134.123 E102.98507
G1 X37.881 Y98.438 E105.31161
G1 X37.682 Y98.323 E105.3266
G1 X37.004 Y97.85 E105.38049
G1 X36.697 Y97.591 E105.40668
G1 X35.91 Y96.791 E105.47984
G1 X35.703 Y96.536 E105.50126
G1 X35.077 Y95.584 E105.57554
G1 X34.769 Y94.978 E105.61986
G1 X34.502 Y94.303 E105.66718
G1 X34.278 Y93.512 E105.72078
G1 X34.154 Y92.865 E105.76373
G1 X34.12 Y92.585 E105.78212
G1 X34.081 Y91.764 E105.83571
G1 X34.087 Y88.111 E106.07387
G1 X34.117 Y87.634 E106.10503
G1 X34.186 Y87.136 E106.13781
G1 X34.376 Y86.306 E106.19332
G1 X34.619 Y85.577 E106.24342
G1 X34.912 Y84.921 E106.29026
G1 X35.152 Y84.483 E106.32283
G1 X35.729 Y83.64 E106.38943
G1 X36.173 Y83.119 E106.43406
G1 X36.657 Y82.65 E106.478
G1 X37.309 Y82.128 E106.53245
G1 X37.881 Y81.756 E106.57693
G1 X37.903 Y45.967 E108.91025
G1 X37.999 Y45.096 E108.96738
G1 X38.139 Y44.408 E109.01316
G1 X38.455 Y43.378 E109.0834
G1 X38.573 Y43.098 E109.10321
G1 X38.945 Y42.335 E109.15855
G1 X39.385 Y41.604 E109.21418
G1 X39.673 Y41.203 E109.24637
G1 X40.206 Y40.577 E109.29997
G0 F6000 X40.72 Y41.09
G1 F900 X41.236 Y40.573 E109.34759
G1 X41.628 Y40.24 E109.38112
G1 X42.232 Y39.81 E109.42946
G1 X42.905 Y39.416 E109.48031
G1 X43.605 Y39.09 E109.53065
G1 X43.98 Y38.951 E109.55672
G1 X44.882 Y38.697 E109.61782
G1 X45.592 Y38.572 E109.66482
G1 X46.058 Y38.527 E109.69534
G1 X137.121 Y38.507 E115.63233
G1 X137.983 Y38.554 E115.68862
G1 X138.432 Y38.619 E115.71819
G1 X139.331 Y38.827 E115.77835
G1 X140.38 Y39.212 E115.85121
G1 X140.986 Y39.517 E115.89544
G1 X141.565 Y39.868 E115.93958
G1 X141.925 Y40.124 E115.96838
G1 X142.472 Y40.585 E116.01502
G1 X143.121 Y41.249 E116.07555
G1 X143.517 Y41.74 E116.11668
G1 X144.009 Y42.476 E116.1744
G1 X144.183 Y42.8 E116.19838
G1 X144.578 Y43.685 E116.26156
G1 X144.808 Y44.394 E116.31016
G1 X144.949 Y45.005 E116.35104
G1 X145.051 Y45.71 E116.39748
G1 X145.093 Y46.5 E116.44906
G1 X145.086 Y133.729 E122.13608
G1 X144.968 Y134.895 E122.21249
G1 X144.805 Y135.623 E122.26113
G1 X144.496 Y136.519 E122.32292
G1 X144.036 Y137.469 E122.39174
G1 X143.723 Y137.979 E122.43075
G1 X143.466 Y138.335 E122.45938
G1 X142.877 Y139.022 E122.51838
G1 X142.569 Y139.327 E122.54664
G1 X141.688 Y140.043 E122.62065
G1 X141.119 Y140.413 E122.6649
G1 X140.8 Y140.583 E122.68847
G1 X139.987 Y140.95 E122.74662
G1 X139.205 Y141.208 E122.80031
G1 X138.594 Y141.349 E122.84119
G1 X137.888 Y141.451 E122.8877
G1 X137.1 Y141.493 E122.93915
G1 X46.139 Y141.474 E128.86949
G1 X45.255 Y141.376 E128.92747
G1 X44.475 Y141.201 E128.97959
G1 X43.765 Y140.975 E129.02817
G1 X43.411 Y140.828 E129.05316
G1 X42.629 Y140.435 E129.11022
G1 X42.116 Y140.12 E129.14947
G1 X41.756 Y139.858 E129.17849
G1 X41.072 Y139.27 E129.2373
G1 X40.658 Y138.849 E129.2758
G1 X40.366 Y138.503 E129.30532
G1 X39.866 Y137.799 E129.36161
G1 X39.485 Y137.137 E129.41141
G1 X39.202 Y136.532 E129.45496
G1 X39.059 Y136.155 E129.48124
G1 X38.815 Y135.293 E129.53965
G1 X38.672 Y134.513 E129.59135
G1 X38.627 Y134.052 E129.62155
G1 X38.607 Y98.013 E131.97117
G1 X38.096 Y97.726 E132.00938
G1 X37.467 Y97.29 E132.05928
G1 X37.213 Y97.08 E132.08076
G1 X36.474 Y96.333 E132.14927
G1 X36.267 Y96.078 E132.17068
G1 X35.723 Y95.252 E132.23516
G1 X35.443 Y94.707 E132.27511
G1 X35.2 Y94.103 E132.31756
G1 X34.991 Y93.374 E132.367
G1 X34.875 Y92.777 E132.40665
G1 X34.841 Y92.497 E132.42504
G1 X34.807 Y91.765 E132.47282
G1 X34.812 Y88.157 E132.70804
G1 X34.842 Y87.68 E132.7392
G1 X34.905 Y87.239 E132.76825
G1 X35.065 Y86.536 E132.81525
G1 X35.308 Y85.807 E132.86535
G1 X35.549 Y85.27 E132.90373
G1 X35.789 Y84.832 E132.93629
G1 X36.282 Y84.111 E132.99323
G1 X36.726 Y83.59 E133.03786
G1 X37.113 Y83.215 E133.073
G1 X37.705 Y82.737 E133.1226
G1 X38.285 Y82.36 E133.1677
G1 X38.607 Y82.194 E133.19132
G1 X38.625 Y46.047 E135.54798
G1 X38.721 Y45.176 E135.60511
G1 X38.85 Y44.556 E135.6464
G1 X39.125 Y43.658 E135.70763
G1 X39.226 Y43.416 E135.72473
G1 X39.598 Y42.653 E135.78007
G1 X40.006 Y41.98 E135.83138
G1 X40.227 Y41.672 E135.85609
G1 X40.72 Y41.09 E135.90582
G0 F6000 X41.234 Y41.603
G1 F900 X41.75 Y41.086 E135.95344
G1 X42.051 Y40.83 E135.97921
G1 X42.599 Y40.437 E136.02317
G1 X43.272 Y40.043 E136.07401
G1 X43.861 Y39.769 E136.11637
G1 X44.179 Y39.649 E136.13853
G1 X45.01 Y39.412 E136.19487
G1 X45.662 Y39.295 E136.23805
G1 X46.128 Y39.25 E136.26858
G1 X137.121 Y39.233 E142.201
G1 X137.942 Y39.279 E142.25461
G1 X138.273 Y39.327 E142.27642
G1 X139.083 Y39.509 E142.33054
G1 X140.056 Y39.862 E142.39803
G1 X140.611 Y40.139 E142.43847
G1 X141.144 Y40.46 E142.47903
G1 X141.504 Y40.716 E142.50783
G1 X142.003 Y41.139 E142.55048
G1 X142.556 Y41.705 E142.60207
G1 X142.952 Y42.196 E142.6432
G1 X143.404 Y42.877 E142.69649
G1 X143.521 Y43.099 E142.71285
G1 X143.888 Y43.912 E142.771
G1 X144.101 Y44.56 E142.81547
G1 X144.23 Y45.109 E142.85224
G1 X144.332 Y45.814 E142.89868
G1 X144.367 Y46.5 E142.94346
G1 X144.36 Y133.729 E148.63049
G1 X144.259 Y134.74 E148.69673
