;FLAVOR:Marlin
;TIME:10792
;Filament used: 9.95421m
;Layer height: 0.2
;MINX:34.081
;MINY:37.781
;MINZ:0.2
;MAXX:145.819
;MAXY:142.219
;MAXZ:8
;TARGET_MACHINE.NAME:Kingroon KP3S
;Generated with Cura_SteamEngine 5.8.1
M140 S75
M105
M190 S75
M104 S220
M105
M109 S220
M82 ;absolute extrusion mode
G28 ; home all axes
 M117 Purge extruder
 G92 E0 ; reset extruder
 G1 Z1.0 F3000 ; move z up little to prevent scratching of surface
 G1 X2 Y20 Z0.3 F5000.0 ; move to start-line position
 G1 X2 Y175.0 Z0.3 F1500.0 E15 ; draw 1st line
 G1 X2 Y175.0 Z0.4 F5000.0 ; move to side a little
 G1 X2 Y20 Z0.4 F1500.0 E30 ; draw 2nd line
 G92 E0 ; reset extruder
 G1 Z1.0 F3000 ; move z up little to prevent scratching of surface
G92 E0
G92 E0
G1 F3000 E-6
;LAYER_COUNT:38
;LAYER:0
M107
G1 F240 Z0.6
G0 F6000 X40.569 Y40.209 Z0.6
;TYPE:SKIRT
G1 F240 Z0.2
G1 F3000 E0
G1 F900 X41.187 Y39.66 E0.05389
G1 X41.358 Y39.528 E0.06798
G1 X42.235 Y38.951 E0.13642
G1 X42.647 Y38.729 E0.16693
G1 X43.347 Y38.414 E0.21698
G1 X44.18 Y38.128 E0.2744
G1 X45.077 Y37.913 E0.33454
G1 X45.434 Y37.858 E0.35809
G1 X45.997 Y37.804 E0.39496
G1 X137.12 Y37.781 E6.33586
G1 X138.05 Y37.83 E6.39658
G1 X138.405 Y37.88 E6.41995
G1 X139.307 Y38.064 E6.47997
G1 X139.754 Y38.196 E6.51036
G1 X140.716 Y38.57 E6.57765
G1 X141.387 Y38.911 E6.62672
G1 X141.984 Y39.282 E6.67255
G1 X142.759 Y39.874 E6.73613
G1 X143.417 Y40.492 E6.79498
G1 X143.747 Y40.854 E6.82692
G1 X144.153 Y41.375 E6.86998
G1 X144.628 Y42.097 E6.92633
G1 X144.826 Y42.46 E6.95329
G1 X145.268 Y43.458 E7.02445
G1 X145.499 Y44.17 E7.07325
G1 X145.668 Y44.901 E7.12217
G1 X145.77 Y45.606 E7.16861
G1 X145.819 Y46.5 E7.22698
G1 X145.796 Y134.036 E12.93402
G1 X145.708 Y134.852 E12.98753
G1 X145.408 Y136.156 E13.07477
G1 X145.229 Y136.656 E13.10939
G1 X144.807 Y137.566 E13.17479
G1 X144.275 Y138.444 E13.24172
G1 X143.677 Y139.216 E13.30539
G1 X143.108 Y139.817 E13.35935
G1 X142.746 Y140.147 E13.39128
G1 X142.225 Y140.553 E13.43434
G1 X141.503 Y141.028 E13.49069
G1 X141.14 Y141.226 E13.51765
G1 X140.141 Y141.668 E13.58887
G1 X139.429 Y141.899 E13.63767
G1 X138.698 Y142.068 E13.68659
G1 X137.992 Y142.17 E13.73309
G1 X137.1 Y142.219 E13.79134
G1 X46.219 Y142.204 E19.71646
G1 X44.996 Y142.065 E19.79671
G1 X44.156 Y141.864 E19.85302
G1 X43.32 Y141.577 E19.91065
G1 X42.281 Y141.076 E19.98585
G1 X41.889 Y140.837 E20.01578
G1 X41.05 Y140.219 E20.08372
G1 X40.357 Y139.581 E20.14513
G1 X39.779 Y138.932 E20.20179
G1 X39.479 Y138.529 E20.23455
G1 X39.048 Y137.859 E20.28649
G1 X38.845 Y137.484 E20.31429
G1 X38.461 Y136.624 E20.37569
G1 X38.253 Y136.01 E20.41796
G1 X38.053 Y135.225 E20.47077
G1 X37.963 Y134.688 E20.50627
G1 X37.901 Y134.042 E20.54858
G1 X37.881 Y98.438 E22.86984
G1 X37.7 Y98.333 E22.88348
G1 X37.053 Y97.885 E22.93479
G1 X36.603 Y97.505 E22.97319
G1 X36.163 Y97.068 E23.01362
G1 X35.512 Y96.266 E23.08096
G1 X34.973 Y95.399 E23.14752
G1 X34.713 Y94.856 E23.18677
G1 X34.48 Y94.252 E23.22898
G1 X34.293 Y93.588 E23.27396
G1 X34.181 Y93.034 E23.31081
G1 X34.112 Y92.476 E23.34746
G1 X34.081 Y91.768 E23.39367
G1 X34.087 Y88.124 E23.63124
G1 X34.116 Y87.649 E23.66227
G1 X34.19 Y87.104 E23.69813
G1 X34.316 Y86.523 E23.73689
G1 X34.639 Y85.523 E23.8054
G1 X34.87 Y85.003 E23.8425
G1 X35.175 Y84.448 E23.88378
G1 X35.632 Y83.767 E23.93725
G1 X36.18 Y83.114 E23.99283
G1 X36.727 Y82.589 E24.04226
G1 X37.356 Y82.097 E24.09433
G1 X37.881 Y81.767 E24.13475
G1 X37.904 Y45.961 E26.46918
G1 X38.013 Y45.011 E26.53152
G1 X38.161 Y44.326 E26.57721
G1 X38.444 Y43.411 E26.63966
G1 X38.586 Y43.063 E26.66416
G1 X38.96 Y42.302 E26.71944
G1 X39.37 Y41.633 E26.7706
G1 X39.899 Y40.928 E26.82806
G1 X40.569 Y40.209 E26.89214
G0 F6000 X41.052 Y40.751
G1 F900 X41.631 Y40.235 E26.9427
G1 X41.802 Y40.103 E26.95679
G1 X42.633 Y39.558 E27.02158
G1 X42.947 Y39.39 E27.04479
G1 X43.585 Y39.1 E27.09048
G1 X44.351 Y38.834 E27.14335
G1 X45.188 Y38.631 E27.1995
G1 X45.545 Y38.576 E27.22305
G1 X46.065 Y38.527 E27.2571
G1 X137.12 Y38.507 E33.19357
G1 X137.951 Y38.549 E33.24782
G1 X138.262 Y38.592 E33.26829
G1 X139.106 Y38.762 E33.32442
G1 X139.494 Y38.874 E33.35075
G1 X140.389 Y39.218 E33.41326
G1 X141.007 Y39.53 E33.4584
G1 X141.543 Y39.859 E33.4994
G1 X142.318 Y40.451 E33.56298
G1 X142.88 Y40.981 E33.61335
G1 X143.21 Y41.343 E33.64528
G1 X143.547 Y41.775 E33.681
G1 X143.993 Y42.45 E33.73375
G1 X144.163 Y42.756 E33.75657
G1 X144.577 Y43.682 E33.8227
G1 X144.808 Y44.394 E33.87151
G1 X144.949 Y45.005 E33.91239
G1 X145.051 Y45.71 E33.95883
G1 X145.093 Y46.5 E34.01041
G1 X145.074 Y133.958 E39.71236
G1 X144.986 Y134.774 E39.76587
G1 X144.724 Y135.911 E39.84194
G1 X144.545 Y136.411 E39.87657
G1 X144.149 Y137.259 E39.93759
G1 X143.699 Y138.002 E39.99422
G1 X143.149 Y138.718 E40.05308
G1 X142.619 Y139.28 E40.10345
G1 X142.257 Y139.61 E40.13538
G1 X141.825 Y139.947 E40.1711
G1 X141.15 Y140.393 E40.22385
G1 X140.844 Y140.563 E40.24667
G1 X139.917 Y140.977 E40.31286
G1 X139.205 Y141.208 E40.36166
G1 X138.594 Y141.349 E40.40255
G1 X137.888 Y141.451 E40.44905
G1 X137.1 Y141.493 E40.5005
G1 X46.219 Y141.478 E46.42563
G1 X45.162 Y141.358 E46.49498
G1 X44.392 Y141.177 E46.54655
G1 X43.556 Y140.89 E46.60418
G1 X42.655 Y140.453 E46.66946
G1 X42.32 Y140.252 E46.69493
G1 X41.481 Y139.634 E46.76287
G1 X40.898 Y139.096 E46.81459
G1 X40.36 Y138.496 E46.86713
G1 X40.09 Y138.136 E46.89647
G1 X39.659 Y137.466 E46.94841
G1 X39.507 Y137.186 E46.96918
G1 X39.148 Y136.389 E47.02617
G1 X38.957 Y135.831 E47.06462
G1 X38.757 Y135.046 E47.11744
G1 X38.686 Y134.619 E47.14566
G1 X38.624 Y133.973 E47.18797
G1 X38.607 Y98.011 E49.53257
G1 X38.111 Y97.735 E49.56957
G1 X37.519 Y97.328 E49.61641
G1 X37.115 Y96.99 E49.65075
G1 X36.675 Y96.553 E49.69118
G1 X36.127 Y95.88 E49.74777
G1 X35.628 Y95.085 E49.80896
G1 X35.368 Y94.542 E49.84821
G1 X35.158 Y93.993 E49.88654
G1 X35.005 Y93.444 E49.92369
G1 X34.893 Y92.89 E49.96054
G1 X34.837 Y92.444 E49.98985
G1 X34.807 Y91.769 E50.0339
G1 X34.812 Y88.168 E50.26867
G1 X34.841 Y87.693 E50.2997
G1 X34.9 Y87.258 E50.32832
G1 X35.026 Y86.677 E50.36708
G1 X35.304 Y85.815 E50.42613
G1 X35.508 Y85.35 E50.45923
G1 X35.778 Y84.853 E50.49611
G1 X36.235 Y84.172 E50.54958
G1 X36.685 Y83.635 E50.59526
G1 X37.174 Y83.161 E50.63966
G1 X37.803 Y82.669 E50.69172
G1 X38.493 Y82.243 E50.74459
G1 X38.607 Y82.185 E50.75293
G1 X38.626 Y46.041 E53.10939
G1 X38.723 Y45.164 E53.16692
G1 X38.871 Y44.479 E53.21261
G1 X39.118 Y43.682 E53.26701
G1 X39.239 Y43.381 E53.28816
G1 X39.581 Y42.679 E53.33907
G1 X39.951 Y42.069 E53.38558
G1 X40.48 Y41.364 E53.44305
G1 X41.052 Y40.751 E53.49771
G0 F6000 X41.536 Y41.292
G1 F900 X42.075 Y40.81 E53.54485
G1 X42.246 Y40.678 E53.55893
G1 X43.03 Y40.166 E53.61998
G1 X43.25 Y40.05 E53.6362
G1 X43.826 Y39.785 E53.67753
G1 X44.525 Y39.539 E53.72585
G1 X45.3 Y39.348 E53.77789
G1 X45.613 Y39.299 E53.79854
G1 X46.133 Y39.25 E53.83259
G1 X137.12 Y39.233 E59.76463
G1 X137.856 Y39.269 E59.81267
G1 X138.12 Y39.304 E59.83003
G1 X138.905 Y39.46 E59.88221
G1 X139.293 Y39.572 E59.90854
G1 X140.064 Y39.867 E59.96236
G1 X140.627 Y40.149 E60.00342
G1 X141.163 Y40.478 E60.04442
G1 X141.821 Y40.98 E60.09838
G1 X142.343 Y41.47 E60.14505
G1 X142.673 Y41.832 E60.17699
G1 X142.942 Y42.177 E60.20551
G1 X143.358 Y42.803 E60.25452
G1 X143.528 Y43.109 E60.27734
G1 X143.887 Y43.909 E60.33451
G1 X144.101 Y44.56 E60.37918
G1 X144.23 Y45.109 E60.41595
G1 X144.332 Y45.814 E60.46239
G1 X144.367 Y46.5 E60.50718
G1 X144.352 Y133.88 E66.20405
G1 X144.264 Y134.696 E66.25756
G1 X144.04 Y135.666 E66.32246
G1 X143.861 Y136.166 E66.35709
G1 X143.492 Y136.95 E66.41358
G1 X143.08 Y137.623 E66.46502
G1 X142.62 Y138.221 E66.51421
G1 X142.13 Y138.743 E66.56089
G1 X141.768 Y139.073 E66.59283
G1 X141.423 Y139.342 E66.62135
G1 X140.797 Y139.758 E66.67035
G1 X140.491 Y139.928 E66.69317
G1 X139.691 Y140.287 E66.75034
G1 X139.039 Y140.501 E66.79508
G1 X138.49 Y140.63 E66.83185
G1 X137.784 Y140.732 E66.87835
G1 X137.1 Y140.767 E66.92301
G1 X46.219 Y140.752 E72.84813
G1 X45.325 Y140.651 E72.90679
G1 X44.628 Y140.49 E72.95343
G1 X43.792 Y140.203 E73.01105
G1 X43.029 Y139.83 E73.06643
G1 X42.694 Y139.629 E73.0919
G1 X41.971 Y139.098 E73.15038
G1 X41.439 Y138.611 E73.1974
G1 X40.901 Y138.011 E73.24994
G1 X40.701 Y137.743 E73.27174
G1 X40.27 Y137.073 E73.32368
G1 X40.168 Y136.886 E73.33757
G1 X39.834 Y136.151 E73.39021
G1 X39.661 Y135.652 E73.42464
G1 X39.461 Y134.867 E73.47745
G1 X39.409 Y134.55 E73.4984
G1 X39.347 Y133.904 E73.54071
G1 X39.333 Y97.553 E75.91067
G1 X39.085 Y97.446 E75.92828
G1 X38.522 Y97.137 E75.97015
G1 X37.93 Y96.73 E76.01698
G1 X37.627 Y96.475 E76.0428
G1 X37.187 Y96.038 E76.08323
G1 X36.692 Y95.424 E76.13465
G1 X36.283 Y94.771 E76.18489
G1 X36.023 Y94.228 E76.22414
G1 X35.857 Y93.795 E76.25437
G1 X35.717 Y93.3 E76.28791
G1 X35.605 Y92.746 E76.32476
G1 X35.562 Y92.411 E76.34678
G1 X35.533 Y91.77 E76.38861
G1 X35.537 Y88.212 E76.62058
G1 X35.566 Y87.737 E76.65161
G1 X35.61 Y87.412 E76.67299
G1 X35.736 Y86.831 E76.71175
G1 X35.969 Y86.107 E76.76134
G1 X36.173 Y85.642 E76.79444
G1 X36.381 Y85.258 E76.82292
G1 X36.838 Y84.577 E76.87639
G1 X37.239 Y84.104 E76.91681
G1 X37.625 Y83.73 E76.95185
G1 X38.184 Y83.287 E76.99836
G1 X38.874 Y82.861 E77.05123
G1 X39.333 Y82.651 E77.08413
G1 X39.348 Y46.118 E79.46596
G1 X39.433 Y45.317 E79.51847
G1 X39.581 Y44.632 E79.56416
G1 X39.793 Y43.949 E79.61079
G1 X39.892 Y43.699 E79.62832
G1 X40.234 Y42.997 E79.67923
G1 X40.532 Y42.505 E79.71673
G1 X41.061 Y41.8 E79.7742
G1 X41.536 Y41.292 E79.81954
G0 F6000 X42.021 Y41.832
G1 F900 X42.519 Y41.385 E79.86317
G1 X42.69 Y41.253 E79.87725
G1 X43.371 Y40.807 E79.93032
G1 X43.553 Y40.71 E79.94377
G1 X44.129 Y40.445 E79.98511
G1 X44.763 Y40.225 E80.02886
G1 X45.416 Y40.065 E80.07269
G1 X45.681 Y40.022 E80.0902
G1 X46.201 Y39.973 E80.12425
G1 X137.12 Y39.959 E86.05185
G1 X137.767 Y39.99 E86.09408
G1 X137.978 Y40.016 E86.10794
G1 X138.763 Y40.172 E86.16012
G1 X139.036 Y40.251 E86.17865
G1 X139.742 Y40.518 E86.22786
G1 X140.247 Y40.768 E86.2646
G1 X140.783 Y41.097 E86.3056
G1 X141.326 Y41.511 E86.35012
G1 X141.806 Y41.959 E86.39293
G1 X142.136 Y42.321 E86.42486
G1 X142.337 Y42.579 E86.44618
G1 X142.753 Y43.205 E86.49519
G1 X142.867 Y43.409 E86.51042
G1 X143.198 Y44.139 E86.56268
G1 X143.395 Y44.73 E86.6033
G1 X143.511 Y45.213 E86.63568
G1 X143.613 Y45.918 E86.68212
G1 X143.641 Y46.5 E86.72011
G1 X143.63 Y133.802 E92.4119
G1 X143.542 Y134.618 E92.46541
G1 X143.356 Y135.421 E92.51915
G1 X143.177 Y135.921 E92.55377
G1 X142.836 Y136.639 E92.60559
G1 X142.503 Y137.183 E92.64718
G1 X142.089 Y137.726 E92.69169
G1 X141.641 Y138.206 E92.7345
G1 X141.279 Y138.536 E92.76644
G1 X141.021 Y138.737 E92.78776
G1 X140.395 Y139.153 E92.83676
G1 X140.191 Y139.267 E92.852
G1 X139.461 Y139.598 E92.90426
G1 X138.87 Y139.795 E92.94487
G1 X138.386 Y139.911 E92.97732
G1 X137.68 Y140.013 E93.02383
G1 X137.1 Y140.041 E93.06169
G1 X46.296 Y140.03 E98.98179
G1 X45.485 Y139.943 E99.03497
G1 X44.859 Y139.802 E99.0768
G1 X44.109 Y139.55 E99.12839
G1 X43.403 Y139.207 E99.17956
G1 X43.068 Y139.006 E99.20503
G1 X42.403 Y138.514 E99.25896
G1 X41.978 Y138.124 E99.29657
G1 X41.481 Y137.574 E99.3449
G1 X41.312 Y137.35 E99.36319
G1 X40.881 Y136.68 E99.41513
G1 X40.81 Y136.546 E99.42502
G1 X40.519 Y135.909 E99.47068
G1 X40.365 Y135.473 E99.50082
G1 X40.165 Y134.688 E99.55364
G1 X40.132 Y134.481 E99.5673
G1 X40.07 Y133.835 E99.60962
G1 X40.059 Y97.053 E102.00767
G1 X39.859 Y96.989 E102.02136
G1 X39.372 Y96.779 E102.05594
G1 X38.931 Y96.537 E102.08874
G1 X38.393 Y96.17 E102.1312
G1 X38.139 Y95.96 E102.15268
G1 X37.699 Y95.523 E102.19311
G1 X37.305 Y95.035 E102.23401
G1 X36.938 Y94.457 E102.27864
G1 X36.678 Y93.914 E102.31789
G1 X36.555 Y93.595 E102.34018
G1 X36.429 Y93.156 E102.36996
G1 X36.317 Y92.602 E102.40681
G1 X36.283 Y92.323 E102.42514
G1 X36.259 Y91.771 E102.46116
G1 X36.262 Y88.256 E102.69032
G1 X36.291 Y87.781 E102.72135
G1 X36.329 Y87.515 E102.73887
G1 X36.445 Y86.987 E102.77411
G1 X36.634 Y86.397 E102.8145
G1 X36.815 Y85.982 E102.84402
G1 X36.984 Y85.663 E102.86756
G1 X37.441 Y84.982 E102.92103
G1 X37.789 Y84.578 E102.95579
G1 X38.08 Y84.296 E102.98221
G1 X38.57 Y83.902 E103.0232
G1 X39.176 Y83.521 E103.06987
G1 X39.82 Y83.227 E103.11603
G1 X40.059 Y83.147 E103.13246
G1 X40.07 Y46.195 E105.5416
G1 X40.155 Y45.394 E105.59412
G1 X40.275 Y44.846 E105.63069
G1 X40.471 Y44.21 E105.67408
G1 X40.546 Y44.015 E105.6877
G1 X40.858 Y43.369 E105.73447
G1 X41.113 Y42.941 E105.76695
G1 X41.642 Y42.236 E105.82442
G1 X42.021 Y41.832 E105.86053
G0 F6000 X42.508 Y42.371
G1 F900 X42.963 Y41.96 E105.90051
G1 X43.134 Y41.828 E105.91459
G1 X43.718 Y41.445 E105.96013
G1 X43.856 Y41.37 E105.97037
G1 X44.432 Y41.105 E106.0117
G1 X44.938 Y40.93 E106.04661
G1 X45.539 Y40.781 E106.08698
G1 X45.749 Y40.745 E106.10087
G1 X46.269 Y40.696 E106.13492
G1 X137.12 Y40.685 E112.05809
G1 X137.678 Y40.711 E112.09451
G1 X137.889 Y40.737 E112.10837
G1 X138.569 Y40.872 E112.15357
G1 X138.782 Y40.931 E112.16798
G1 X139.42 Y41.169 E112.21237
G1 X139.925 Y41.419 E112.24911
G1 X140.346 Y41.677 E112.2813
G1 X140.833 Y42.044 E112.32106
G1 X141.269 Y42.448 E112.35981
G1 X141.599 Y42.81 E112.39175
G1 X141.733 Y42.982 E112.40596
G1 X142.124 Y43.568 E112.45189
G1 X142.207 Y43.712 E112.46273
G1 X142.51 Y44.371 E112.51002
G1 X142.69 Y44.904 E112.5467
G1 X142.792 Y45.317 E112.57443
G1 X142.894 Y46.022 E112.62087
G1 X142.915 Y46.5 E112.65207
G1 X142.908 Y133.729 E118.33909
G1 X142.834 Y134.458 E118.38687
G1 X142.672 Y135.176 E118.43485
G1 X142.493 Y135.676 E118.46948
G1 X142.214 Y136.264 E118.51191
G1 X141.923 Y136.746 E118.54862
G1 X141.556 Y137.233 E118.58838
G1 X141.152 Y137.669 E118.62713
G1 X140.79 Y137.999 E118.65906
G1 X140.618 Y138.133 E118.67328
G1 X140.032 Y138.524 E118.71921
G1 X139.888 Y138.607 E118.73004
G1 X139.229 Y138.91 E118.77733
G1 X138.696 Y139.09 E118.81401
G1 X138.282 Y139.192 E118.84181
G1 X137.576 Y139.294 E118.88832
G1 X137.1 Y139.315 E118.91938
G1 X46.369 Y139.308 E124.83472
G1 X45.641 Y139.234 E124.88243
G1 X45.085 Y139.112 E124.91954
G1 X44.424 Y138.896 E124.96488
G1 X43.777 Y138.584 E125.01171
G1 X43.442 Y138.383 E125.03718
G1 X42.894 Y137.979 E125.08157
G1 X42.469 Y137.589 E125.11918
G1 X42.057 Y137.132 E125.15929
G1 X41.922 Y136.956 E125.17375
G1 X41.517 Y136.329 E125.22242
G1 X41.469 Y136.242 E125.2289
G1 X41.204 Y135.667 E125.27017
G1 X41.05 Y135.231 E125.30032
G1 X40.881 Y134.571 E125.34474
G1 X40.855 Y134.412 E125.35524
G1 X40.793 Y133.766 E125.39755
G1 X40.785 Y96.501 E127.8271
G1 X40.532 Y96.443 E127.84402
G1 X40.082 Y96.298 E127.87485
G1 X39.717 Y96.14 E127.90078
G1 X39.337 Y95.935 E127.92893
G1 X38.856 Y95.61 E127.96678
G1 X38.602 Y95.4 E127.98826
G1 X38.213 Y95.01 E128.02417
G1 X37.873 Y94.583 E128.05976
G1 X37.593 Y94.143 E128.09376
G1 X37.333 Y93.6 E128.13301
G1 X37.252 Y93.39 E128.14769
G1 X37.141 Y93.012 E128.17337
G1 X37.029 Y92.458 E128.21022
G1 X37.004 Y92.24 E128.22453
G1 X36.985 Y91.771 E128.25513
G1 X36.987 Y88.3 E128.48143
G1 X37.016 Y87.825 E128.51245
G1 X37.039 Y87.667 E128.52286
G1 X37.138 Y87.204 E128.55373
G1 X37.301 Y86.684 E128.58926
G1 X37.457 Y86.322 E128.61496
G1 X37.626 Y86.003 E128.6385
G1 X37.994 Y85.453 E128.68164
G1 X38.299 Y85.095 E128.7123
G1 X38.535 Y84.862 E128.73392
G1 X39.025 Y84.468 E128.77492
G1 X39.558 Y84.138 E128.81579
G1 X40.051 Y83.915 E128.85107
G1 X40.527 Y83.755 E128.88381
G1 X40.785 Y83.7 E128.901
G1 X40.792 Y46.268 E131.34144
G1 X40.865 Y45.546 E131.38875
G1 X40.969 Y45.059 E131.42122
G1 X41.149 Y44.471 E131.46131
G1 X41.224 Y44.276 E131.47493
G1 X41.482 Y43.741 E131.51366
G1 X41.737 Y43.313 E131.54614
G1 X42.173 Y42.731 E131.59355
G1 X42.508 Y42.371 E131.62561
G0 F6000 X43.529 Y43.402
G1 F900 X43.934 Y43.04 E131.66102
G1 X44.474 Y42.684 E131.70319
G1 X44.914 Y42.475 E131.73495
G1 X45.354 Y42.32 E131.76536
G1 X45.885 Y42.191 E131.80099
G1 X46.405 Y42.142 E131.83504
G1 X137.12 Y42.137 E137.74934
G1 X137.607 Y42.161 E137.78113
G1 X138.287 Y42.296 E137.82633
G1 X138.788 Y42.476 E137.86104
G1 X139.173 Y42.661 E137.88889
G1 X139.537 Y42.881 E137.91662
G1 X139.854 Y43.116 E137.94235
G1 X140.195 Y43.426 E137.97239
