;FLAVOR:Marlin
;TIME:10028
;Filament used: 12.4542m
;Layer height: 0.2
;MINX:35.553
;MINY:25.875
;MINZ:0.2
;MAXX:144.338
;MAXY:141.966
;MAXZ:14.4
;TARGET_MACHINE.NAME:Kingroon KP3S
;Generated with Cura_SteamEngine 5.8.1
M140 S75
M105
M190 S75
M104 S220
M105
M109 S220
M82 ;absolute extrusion mode
G29 ; autolevel
G28 ; home all axes
 M117 Purge extruder
 G92 E0 ; reset extruder
 G1 Z1.0 F3000 ; move z up little to prevent scratching of surface
 G1 X2 Y20 Z0.3 F5000.0 ; move to start-line position
 G1 X2 Y175.0 Z0.3 F1500.0 E15 ; draw 1st line
 G1 X2 Y175.0 Z0.4 F5000.0 ; move to side a little
 G1 X2 Y20 Z0.4 F1500.0 E30 ; draw 2nd line
 G92 E0 ; reset extruder
 G1 Z1.0 F3000 ; move z up little to prevent scratching of surface
G92 E0
G92 E0
G1 F3000 E-3
;LAYER_COUNT:70
;LAYER:0
M107
G1 F240 Z0.6
G0 F6000 X38.397 Y33.233 Z0.6
;TYPE:SKIRT
G1 F240 Z0.2
G1 F3000 E0
G1 F900 X39.122 Y32.506 E0.06694
G1 X39.802 Y31.939 E0.12466
G1 X40.614 Y31.371 E0.18927
G1 X41.287 Y30.977 E0.24011
G1 X42.399 Y30.456 E0.32017
G1 X43.051 Y30.221 E0.36536
G1 X44.024 Y29.951 E0.43119
G1 X45.162 Y29.749 E0.50654
G1 X45.625 Y29.704 E0.53687
G1 X80.366 Y29.672 E2.80187
G1 X80.446 Y29.568 E2.81042
G1 X81.1 Y28.829 E2.87476
G1 X81.666 Y28.296 E2.92545
G1 X82.29 Y27.8 E2.97742
G1 X83.181 Y27.22 E3.04673
G1 X84.27 Y26.665 E3.12642
G1 X84.657 Y26.508 E3.15364
G1 X85.639 Y26.198 E3.22078
G1 X86.189 Y26.072 E3.25757
G1 X87.945 Y25.875 E3.37277
G1 X92.192 Y25.896 E3.64967
G1 X92.906 Y25.966 E3.69644
G1 X93.772 Y26.124 E3.75383
G1 X94.468 Y26.316 E3.8009
G1 X95.456 Y26.683 E3.86962
G1 X96.44 Y27.168 E3.94114
G1 X97.082 Y27.571 E3.99056
G1 X98.137 Y28.386 E4.07748
G1 X98.634 Y28.862 E4.12234
G1 X99.212 Y29.507 E4.17881
G1 X99.339 Y29.672 E4.19238
G1 X134.242 Y29.709 E6.46794
G1 X135.349 Y29.844 E6.54065
G1 X136.269 Y30.049 E6.6021
G1 X137.412 Y30.416 E6.68036
G1 X137.927 Y30.637 E6.7169
G1 X138.702 Y31.026 E6.77344
G1 X139.674 Y31.621 E6.84774
G1 X140.028 Y31.878 E6.87626
G1 X140.922 Y32.643 E6.95297
G1 X141.528 Y33.256 E7.00917
G1 X142.075 Y33.914 E7.06495
G1 X142.579 Y34.63 E7.12204
G1 X143.237 Y35.774 E7.20808
G1 X143.469 Y36.274 E7.24402
G1 X143.801 Y37.163 E7.30589
G1 X143.994 Y37.834 E7.35141
G1 X144.27 Y39.279 E7.44732
G1 X144.315 Y39.745 E7.47784
G1 X144.338 Y131.48 E13.45865
G1 X144.302 Y132.077 E13.49764
G1 X144.181 Y132.97 E13.55639
G1 X144.04 Y133.644 E13.60129
G1 X143.784 Y134.514 E13.66041
G1 X143.424 Y135.442 E13.72531
G1 X142.906 Y136.488 E13.80141
G1 X142.654 Y136.911 E13.83351
G1 X142.088 Y137.707 E13.89719
G1 X141.4 Y138.514 E13.96633
G1 X140.673 Y139.218 E14.0323
G1 X139.65 Y140.024 E14.11721
G1 X138.865 Y140.516 E14.17761
G1 X137.844 Y141.033 E14.25223
G1 X136.771 Y141.453 E14.32735
G1 X136.487 Y141.536 E14.34664
G1 X135.427 Y141.779 E14.41754
G1 X134.519 Y141.907 E14.47733
G1 X133.45 Y141.966 E14.54713
G1 X45.671 Y141.94 E20.27001
G1 X45.214 Y141.893 E20.29997
G1 X43.992 Y141.682 E20.38081
G1 X43.166 Y141.455 E20.43666
G1 X42.215 Y141.108 E20.50266
G1 X41.514 Y140.781 E20.55309
G1 X40.536 Y140.22 E20.6266
G1 X40.009 Y139.853 E20.66847
G1 X38.886 Y138.908 E20.76416
G1 X38.258 Y138.245 E20.8237
G1 X37.628 Y137.455 E20.88958
G1 X36.958 Y136.416 E20.97018
G1 X36.644 Y135.823 E21.01392
G1 X36.249 Y134.893 E21.0798
G1 X35.982 Y134.082 E21.13547
G1 X35.725 Y132.971 E21.20981
G1 X35.605 Y132.078 E21.26856
G1 X35.553 Y131.069 E21.33443
G1 X35.587 Y39.801 E27.28478
G1 X35.683 Y38.929 E27.34198
G1 X35.909 Y37.834 E27.41487
G1 X36.25 Y36.735 E27.48989
G1 X36.464 Y36.213 E27.52667
G1 X36.836 Y35.45 E27.58202
G1 X37.471 Y34.395 E27.6623
G1 X37.864 Y33.859 E27.70563
G1 X38.397 Y33.233 E27.75923
G0 F6000 X38.95 Y33.704
G1 F900 X39.589 Y33.062 E27.81829
G1 X40.219 Y32.533 E27.87192
G1 X40.981 Y31.998 E27.93262
G1 X41.654 Y31.604 E27.98347
G1 X42.647 Y31.138 E28.05498
G1 X43.245 Y30.921 E28.09646
G1 X44.218 Y30.651 E28.16229
G1 X45.232 Y30.472 E28.22942
G1 X45.695 Y30.427 E28.25975
G1 X80.737 Y30.398 E30.54437
G1 X80.991 Y30.048 E30.57256
G1 X81.598 Y29.358 E30.63248
G1 X82.164 Y28.825 E30.68316
G1 X82.686 Y28.408 E30.72672
G1 X83.577 Y27.828 E30.79604
G1 X84.543 Y27.338 E30.86665
G1 X84.93 Y27.181 E30.89388
G1 X85.801 Y26.906 E30.95343
G1 X86.351 Y26.78 E30.99022
G1 X87.942 Y26.601 E31.0946
G1 X92.121 Y26.619 E31.36706
G1 X92.835 Y26.689 E31.41383
G1 X93.582 Y26.825 E31.46334
G1 X94.215 Y26.997 E31.5061
G1 X95.203 Y27.364 E31.57482
G1 X96.057 Y27.785 E31.63689
G1 X96.64 Y28.147 E31.68163
G1 X97.636 Y28.912 E31.76351
G1 X98.093 Y29.347 E31.80465
G1 X98.671 Y29.992 E31.86111
G1 X98.977 Y30.398 E31.89426
G1 X134.156 Y30.43 E34.18781
G1 X135.191 Y30.553 E34.25576
G1 X136.111 Y30.758 E34.31721
G1 X137.127 Y31.084 E34.38678
G1 X137.603 Y31.287 E34.42052
G1 X138.324 Y31.646 E34.47303
G1 X139.247 Y32.209 E34.54352
G1 X139.601 Y32.466 E34.57204
G1 X140.407 Y33.155 E34.64117
G1 X140.971 Y33.722 E34.69331
G1 X141.481 Y34.332 E34.74515
G1 X141.985 Y35.048 E34.80223
G1 X142.578 Y36.08 E34.87983
G1 X142.81 Y36.58 E34.91577
G1 X143.103 Y37.364 E34.97033
G1 X143.296 Y38.035 E35.01586
G1 X143.547 Y39.349 E35.10307
G1 X143.592 Y39.815 E35.1336
G1 X143.613 Y131.436 E41.10697
G1 X143.577 Y132.033 E41.14596
G1 X143.47 Y132.821 E41.1978
G1 X143.329 Y133.495 E41.2427
G1 X143.088 Y134.307 E41.29792
G1 X142.773 Y135.121 E41.35483
G1 X142.282 Y136.116 E41.42716
G1 X142.03 Y136.539 E41.45927
G1 X141.534 Y137.238 E41.51515
G1 X140.895 Y137.992 E41.57958
G1 X140.168 Y138.696 E41.64556
G1 X139.262 Y139.41 E41.72077
G1 X138.537 Y139.868 E41.77668
G1 X137.516 Y140.385 E41.85129
G1 X136.567 Y140.756 E41.91772
G1 X136.283 Y140.839 E41.93701
G1 X135.326 Y141.06 E42.00105
G1 X134.418 Y141.188 E42.06083
G1 X133.45 Y141.24 E42.12403
G1 X45.742 Y141.217 E47.84229
G1 X45.336 Y141.177 E47.86889
G1 X44.182 Y140.981 E47.9452
G1 X43.413 Y140.772 E47.99716
G1 X42.52 Y140.449 E48.05907
G1 X41.874 Y140.15 E48.10548
G1 X40.948 Y139.622 E48.17497
G1 X40.475 Y139.296 E48.21243
G1 X39.412 Y138.407 E48.30277
G1 X38.826 Y137.792 E48.35816
G1 X38.196 Y137.002 E48.42403
G1 X37.6 Y136.076 E48.49583
G1 X37.286 Y135.483 E48.53958
G1 X36.939 Y134.666 E48.59745
G1 X36.672 Y133.855 E48.65311
G1 X36.444 Y132.872 E48.7189
G1 X36.33 Y132.04 E48.77365
G1 X36.279 Y131.069 E48.83705
G1 X36.309 Y39.88 E54.78225
G1 X36.405 Y39.008 E54.83945
G1 X36.602 Y38.049 E54.90327
G1 X36.943 Y36.95 E54.9783
G1 X37.117 Y36.531 E55.00787
G1 X37.489 Y35.768 E55.06322
G1 X38.057 Y34.823 E55.1351
G1 X38.417 Y34.33 E55.1749
G1 X38.95 Y33.704 E55.2285
G0 F6000 X39.503 Y34.175
G1 F900 X40.058 Y33.616 E55.27986
G1 X40.637 Y33.126 E55.32931
G1 X41.348 Y32.625 E55.38602
G1 X42.021 Y32.231 E55.43686
G1 X42.954 Y31.796 E55.50398
G1 X43.439 Y31.621 E55.53759
G1 X44.412 Y31.351 E55.60343
G1 X45.302 Y31.195 E55.66234
G1 X45.765 Y31.15 E55.69266
G1 X81.11 Y31.124 E57.99703
G1 X81.538 Y30.526 E58.04498
G1 X82.096 Y29.887 E58.10029
G1 X82.662 Y29.354 E58.15098
G1 X83.085 Y29.015 E58.18632
G1 X83.907 Y28.475 E58.25044
G1 X84.816 Y28.011 E58.31698
G1 X85.203 Y27.854 E58.34421
G1 X85.963 Y27.614 E58.39617
G1 X86.513 Y27.488 E58.43295
G1 X87.939 Y27.327 E58.52651
G1 X92.05 Y27.342 E58.79454
G1 X92.764 Y27.412 E58.84131
G1 X93.395 Y27.527 E58.88313
G1 X93.962 Y27.678 E58.92138
G1 X94.95 Y28.045 E58.9901
G1 X95.733 Y28.435 E59.04713
G1 X96.2 Y28.724 E59.08293
G1 X97.137 Y29.439 E59.15978
G1 X97.552 Y29.832 E59.19704
G1 X98.13 Y30.477 E59.25351
G1 X98.492 Y30.963 E59.29302
G1 X98.595 Y31.124 E59.30548
G1 X134.073 Y31.151 E61.61852
G1 X135.033 Y31.262 E61.68153
G1 X135.953 Y31.467 E61.74298
G1 X136.844 Y31.753 E61.80399
G1 X137.281 Y31.938 E61.83493
G1 X137.947 Y32.267 E61.88336
G1 X138.82 Y32.797 E61.94994
G1 X139.174 Y33.054 E61.97846
G1 X139.892 Y33.667 E62.04001
G1 X140.456 Y34.234 E62.09215
G1 X140.887 Y34.75 E62.13598
G1 X141.391 Y35.466 E62.19307
G1 X141.919 Y36.386 E62.26223
G1 X142.151 Y36.886 E62.29816
G1 X142.405 Y37.565 E62.34543
G1 X142.598 Y38.236 E62.39095
G1 X142.824 Y39.419 E62.46947
G1 X142.869 Y39.885 E62.49999
G1 X142.888 Y131.392 E68.46593
G1 X142.852 Y131.989 E68.50492
G1 X142.759 Y132.672 E68.54986
G1 X142.618 Y133.346 E68.59476
G1 X142.41 Y134.047 E68.64243
G1 X142.121 Y134.801 E68.69508
G1 X141.658 Y135.744 E68.76357
G1 X141.406 Y136.167 E68.79567
G1 X140.979 Y136.77 E68.84384
G1 X140.388 Y137.472 E68.90367
G1 X139.717 Y138.127 E68.9648
G1 X138.872 Y138.798 E69.03515
G1 X138.209 Y139.22 E69.08639
G1 X137.188 Y139.737 E69.161
G1 X136.36 Y140.06 E69.21895
G1 X136.118 Y140.132 E69.23541
G1 X135.222 Y140.341 E69.29539
G1 X134.378 Y140.463 E69.35099
G1 X133.45 Y140.514 E69.41158
G1 X45.81 Y140.494 E75.12541
G1 X45.458 Y140.461 E75.14846
G1 X44.304 Y140.265 E75.22477
G1 X43.658 Y140.088 E75.26844
G1 X42.823 Y139.789 E75.32626
G1 X42.232 Y139.518 E75.36865
G1 X41.357 Y139.022 E75.43423
G1 X40.939 Y138.737 E75.46721
G1 X39.936 Y137.904 E75.55221
G1 X39.392 Y137.337 E75.60344
G1 X38.806 Y136.608 E75.66442
G1 X38.242 Y135.736 E75.73213
G1 X37.928 Y135.143 E75.77588
G1 X37.629 Y134.439 E75.82574
G1 X37.362 Y133.628 E75.88141
G1 X37.163 Y132.771 E75.93877
G1 X37.055 Y132.001 E75.98946
G1 X37.005 Y131.069 E76.05031
G1 X37.031 Y39.959 E81.99037
G1 X37.127 Y39.087 E82.04756
G1 X37.295 Y38.264 E82.10233
G1 X37.636 Y37.165 E82.17735
G1 X37.77 Y36.849 E82.19972
G1 X38.142 Y36.086 E82.25507
G1 X38.645 Y35.249 E82.31873
G1 X38.97 Y34.801 E82.35482
G1 X39.503 Y34.175 E82.40842
G0 F6000 X40.056 Y34.646
G1 F900 X40.572 Y34.129 E82.45604
G1 X41.057 Y33.718 E82.49749
G1 X41.715 Y33.252 E82.55006
G1 X42.388 Y32.858 E82.6009
G1 X43.203 Y32.478 E82.65953
G1 X43.633 Y32.321 E82.68937
G1 X44.606 Y32.051 E82.75521
G1 X45.372 Y31.918 E82.80589
G1 X45.835 Y31.873 E82.83622
G1 X81.509 Y31.85 E85.16204
G1 X81.623 Y31.657 E85.17666
G1 X82.085 Y31.004 E85.22881
G1 X82.643 Y30.365 E85.28412
G1 X83.116 Y29.921 E85.32641
G1 X83.539 Y29.582 E85.36175
G1 X84.304 Y29.083 E85.4213
G1 X85.089 Y28.684 E85.47871
G1 X85.476 Y28.527 E85.50594
G1 X86.125 Y28.322 E85.55031
G1 X86.675 Y28.196 E85.5871
G1 X87.937 Y28.053 E85.66991
G1 X91.979 Y28.065 E85.93343
G1 X92.693 Y28.135 E85.9802
G1 X93.208 Y28.229 E86.01434
G1 X93.775 Y28.38 E86.05259
G1 X94.628 Y28.696 E86.1119
G1 X95.356 Y29.056 E86.16485
G1 X95.761 Y29.302 E86.19574
G1 X96.64 Y29.969 E86.26768
G1 X97.011 Y30.317 E86.30084
G1 X97.589 Y30.962 E86.35731
G1 X97.88 Y31.353 E86.38908
G1 X98.197 Y31.85 E86.42752
G1 X133.993 Y31.873 E88.76129
G1 X134.875 Y31.971 E88.81915
G1 X135.795 Y32.176 E88.8806
G1 X136.563 Y32.423 E88.9332
G1 X136.959 Y32.589 E88.96119
G1 X137.625 Y32.918 E89.00962
G1 X138.393 Y33.385 E89.06822
G1 X138.747 Y33.642 E89.09674
G1 X139.377 Y34.179 E89.15071
G1 X139.941 Y34.746 E89.20285
G1 X140.295 Y35.17 E89.23887
G1 X140.762 Y35.829 E89.29153
G1 X141.26 Y36.692 E89.35649
G1 X141.492 Y37.192 E89.39242
G1 X141.707 Y37.766 E89.43238
G1 X141.9 Y38.437 E89.4779
G1 X142.101 Y39.489 E89.54773
G1 X142.146 Y39.955 E89.57825
G1 X142.163 Y131.348 E95.53676
G1 X142.127 Y131.945 E95.57575
G1 X142.048 Y132.523 E95.61379
G1 X141.907 Y133.197 E95.65868
G1 X141.732 Y133.787 E95.6988
G1 X141.443 Y134.541 E95.75145
G1 X141.034 Y135.372 E95.81183
G1 X140.782 Y135.795 E95.84393
G1 X140.424 Y136.302 E95.8844
G1 X139.833 Y137.004 E95.94423
G1 X139.264 Y137.56 E95.99609
G1 X138.479 Y138.187 E96.06159
G1 X137.879 Y138.573 E96.10811
G1 X136.923 Y139.061 E96.17809
G1 X136.148 Y139.365 E96.23236
G1 X135.951 Y139.425 E96.24579
G1 X135.118 Y139.622 E96.3016
G1 X134.274 Y139.744 E96.35719
G1 X133.45 Y139.788 E96.41099
G1 X45.874 Y139.771 E102.12064
G1 X45.578 Y139.745 E102.14001
G1 X44.494 Y139.564 E102.21167
G1 X43.903 Y139.404 E102.25158
G1 X43.068 Y139.105 E102.30941
G1 X42.589 Y138.886 E102.34375
G1 X41.762 Y138.419 E102.40567
G1 X41.403 Y138.178 E102.43386
G1 X40.4 Y137.345 E102.51886
G1 X39.958 Y136.882 E102.56059
G1 X39.372 Y136.153 E102.62157
G1 X38.884 Y135.396 E102.68029
G1 X38.57 Y134.803 E102.72404
G1 X38.319 Y134.212 E102.7659
G1 X38.052 Y133.401 E102.82157
G1 X37.882 Y132.667 E102.87069
G1 X37.78 Y131.961 E102.9172
G1 X37.731 Y131.069 E102.97544
G1 X37.753 Y40.038 E108.91034
G1 X37.849 Y39.166 E108.96754
G1 X37.989 Y38.477 E109.01338
G1 X38.305 Y37.447 E109.08362
G1 X38.423 Y37.167 E109.10343
G1 X38.795 Y36.404 E109.15877
G1 X39.235 Y35.673 E109.2144
G1 X39.523 Y35.272 E109.24658
G1 X40.056 Y34.646 E109.30019
G0 F6000 X40.57 Y35.159
G1 F900 X41.086 Y34.642 E109.34781
G1 X41.478 Y34.309 E109.38134
G1 X42.082 Y33.879 E109.42968
G1 X42.755 Y33.485 E109.48052
G1 X43.455 Y33.159 E109.53087
G1 X43.83 Y33.02 E109.55694
G1 X44.732 Y32.766 E109.61804
G1 X45.442 Y32.641 E109.66504
G1 X45.905 Y32.596 E109.69537
G1 X81.931 Y32.576 E112.04414
G1 X82.218 Y32.073 E112.08189
G1 X82.634 Y31.479 E112.12917
G1 X83.141 Y30.893 E112.17969
G1 X83.57 Y30.488 E112.21816
G1 X83.993 Y30.149 E112.2535
G1 X84.699 Y29.692 E112.30833
G1 X85.362 Y29.357 E112.35676
G1 X85.749 Y29.2 E112.38399
G1 X86.287 Y29.03 E112.42077
G1 X86.837 Y28.904 E112.45756
G1 X87.935 Y28.779 E112.52961
G1 X91.908 Y28.788 E112.78863
G1 X92.622 Y28.858 E112.83541
G1 X93.021 Y28.931 E112.86185
G1 X93.588 Y29.082 E112.90011
G1 X94.373 Y29.376 E112.95476
G1 X94.979 Y29.677 E112.99887
G1 X95.384 Y29.923 E113.02977
G1 X96.143 Y30.499 E113.09189
G1 X96.514 Y30.847 E113.12505
G1 X97.008 Y31.397 E113.17325
G1 X97.269 Y31.746 E113.20166
G1 X97.561 Y32.2 E113.23685
G1 X97.761 Y32.576 E113.26462
G1 X133.913 Y32.595 E115.62161
G1 X134.795 Y32.693 E115.67946
G1 X135.575 Y32.868 E115.73158
G1 X136.285 Y33.094 E115.78016
G1 X136.637 Y33.24 E115.805
G1 X137.303 Y33.569 E115.85343
G1 X137.97 Y33.975 E115.90434
G1 X138.278 Y34.196 E115.92906
G1 X138.862 Y34.691 E115.97897
G1 X139.426 Y35.258 E116.03111
G1 X139.704 Y35.592 E116.05944
G1 X140.134 Y36.194 E116.10767
G1 X140.601 Y36.998 E116.16829
G1 X140.833 Y37.498 E116.20423
G1 X141.009 Y37.967 E116.23689
G1 X141.202 Y38.638 E116.28241
G1 X141.378 Y39.559 E116.34354
G1 X141.423 Y40.025 E116.37406
G1 X141.438 Y131.304 E122.32514
G1 X141.402 Y131.901 E122.36413
G1 X141.337 Y132.374 E122.39526
G1 X141.196 Y133.048 E122.44015
G1 X141.054 Y133.527 E122.47272
G1 X140.765 Y134.281 E122.52537
G1 X140.41 Y135 E122.57765
G1 X140.158 Y135.423 E122.60975
G1 X139.867 Y135.836 E122.64269
G1 X139.323 Y136.487 E122.698
G1 X138.809 Y136.994 E122.74507
G1 X138.086 Y137.576 E122.80558
G1 X137.486 Y137.962 E122.85209
G1 X136.657 Y138.386 E122.9128
G1 X135.936 Y138.67 E122.96332
G1 X135.739 Y138.73 E122.97675
G1 X135.014 Y138.903 E123.02534
G1 X134.17 Y139.025 E123.08094
G1 X133.45 Y139.062 E123.12794
G1 X45.93 Y139.047 E128.83394
G1 X45.696 Y139.029 E128.84924
G1 X44.681 Y138.862 E128.91631
G1 X44.148 Y138.72 E128.95227
G1 X43.313 Y138.421 E129.0101
G1 X42.894 Y138.227 E129.0402
G1 X42.167 Y137.816 E129.09465
G1 X41.808 Y137.575 E129.12284
G1 X40.923 Y136.841 E129.1978
G1 X40.524 Y136.427 E129.23528
G1 X39.938 Y135.698 E129.29626
G1 X39.526 Y135.056 E129.346
G1 X39.212 Y134.463 E129.38975
G1 X39.009 Y133.985 E129.4236
G1 X38.742 Y133.174 E129.47927
G1 X38.601 Y132.563 E129.52015
G1 X38.499 Y131.857 E129.56666
G1 X38.457 Y131.069 E129.61811
G1 X38.475 Y40.117 E135.54786
G1 X38.571 Y39.245 E135.60505
G1 X38.7 Y38.625 E135.64634
G1 X38.975 Y37.727 E135.70757
G1 X39.076 Y37.485 E135.72467
G1 X39.448 Y36.722 E135.78001
G1 X39.856 Y36.049 E135.83132
G1 X40.077 Y35.741 E135.85604
G1 X40.57 Y35.159 E135.90576
G0 F6000 X41.084 Y35.672
G1 F900 X41.6 Y35.155 E135.95339
G1 X41.901 Y34.899 E135.97915
G1 X42.449 Y34.506 E136.02311
G1 X43.122 Y34.112 E136.07396
G1 X43.711 Y33.838 E136.11631
G1 X44.029 Y33.718 E136.13847
G1 X44.86 Y33.481 E136.19481
G1 X45.512 Y33.364 E136.238
G1 X45.975 Y33.319 E136.26832
G1 X82.4 Y33.302 E138.64311
G1 X82.573 Y32.914 E138.6708
G1 X82.815 Y32.486 E138.70286
G1 X83.185 Y31.951 E138.74527
G1 X83.641 Y31.419 E138.79095
G1 X84.024 Y31.055 E138.8254
G1 X84.447 Y30.716 E138.86074
G1 X85.028 Y30.339 E138.9059
G1 X85.635 Y30.03 E138.9503
G1 X86.022 Y29.873 E138.97753
G1 X86.449 Y29.738 E139.00673
G1 X86.999 Y29.612 E139.04352
G1 X87.933 Y29.505 E139.10481
G1 X91.906 Y29.514 E139.36383
G1 X92.495 Y29.573 E139.40243
