;FLAVOR:Marlin
;TIME:11608
;Filament used: 12.5991m
;Layer height: 0.2
;MINX:43.49
;MINY:75.529
;MINZ:0.2
;MAXX:137.141
;MAXY:118.256
;MAXZ:74.2
;TARGET_MACHINE.NAME:Kingroon KP3S
;Generated with Cura_SteamEngine 5.8.1
M140 S75
M105
M190 S75
M104 S220
M105
M109 S220
M82 ;absolute extrusion mode
G28 ; home all axes
 M117 Purge extruder
 G92 E0 ; reset extruder
 G1 Z1.0 F3000 ; move z up little to prevent scratching of surface
 G1 X2 Y20 Z0.3 F5000.0 ; move to start-line position
 G1 X2 Y175.0 Z0.3 F1500.0 E15 ; draw 1st line
 G1 X2 Y175.0 Z0.4 F5000.0 ; move to side a little
 G1 X2 Y20 Z0.4 F1500.0 E30 ; draw 2nd line
 G92 E0 ; reset extruder
 G1 Z1.0 F3000 ; move z up little to prevent scratching of surface
G92 E0
G92 E0
G1 F3000 E-6
;LAYER_COUNT:369
;LAYER:0
M107
G1 F240 Z0.6
G0 F6000 X65.377 Y76.726 Z0.6
;TYPE:SKIRT
G1 F240 Z0.2
G1 F3000 E0
G1 F900 X65.744 Y76.43 E0.03074
G1 X66.248 Y76.11 E0.06966
G1 X66.493 Y75.989 E0.08748
G1 X66.822 Y75.854 E0.11066
G1 X67.334 Y75.691 E0.14569
G1 X67.613 Y75.627 E0.16436
G1 X68.188 Y75.543 E0.20224
G1 X68.359 Y75.532 E0.21341
G1 X111.5 Y75.529 E3.02606
G1 X112.245 Y75.598 E3.07484
G1 X112.638 Y75.679 E3.101
G1 X113.058 Y75.806 E3.1296
G1 X113.488 Y75.985 E3.15997
G1 X113.922 Y76.216 E3.19202
G1 X114.405 Y76.539 E3.22991
G1 X114.652 Y76.748 E3.251
G1 X115.022 Y77.125 E3.28544
G1 X115.318 Y77.492 E3.31618
G1 X115.638 Y77.996 E3.3551
G1 X115.759 Y78.241 E3.37292
G1 X115.894 Y78.57 E3.3961
G1 X116.057 Y79.082 E3.43113
G1 X116.121 Y79.361 E3.4498
G1 X116.205 Y79.936 E3.48768
G1 X116.216 Y80.107 E3.49885
G1 X116.219 Y99.077 E4.73563
G1 X116.519 Y98.929 E4.75744
G1 X117.994 Y98.341 E4.86097
G1 X118.591 Y98.181 E4.90126
G1 X118.735 Y98.154 E4.91081
G1 X120.15 Y97.966 E5.00388
G1 X120.654 Y97.944 E5.03677
G1 X121.086 Y97.528 E5.07587
G1 X122.273 Y96.624 E5.17314
G1 X122.781 Y96.309 E5.21211
G1 X123.21 Y96.099 E5.24326
G1 X124.587 Y95.538 E5.3402
G1 X125.112 Y95.382 E5.3759
G1 X125.582 Y95.289 E5.40714
G1 X126.867 Y95.12 E5.49164
G1 X127.599 Y95.088 E5.53941
G1 X127.998 Y95.114 E5.56548
G1 X129.62 Y95.334 E5.67219
G1 X130.276 Y95.502 E5.71634
G1 X130.484 Y95.577 E5.73076
G1 X131.865 Y96.15 E5.82824
G1 X132.31 Y96.381 E5.86093
G1 X132.826 Y96.718 E5.90111
G1 X133.853 Y97.505 E5.98546
G1 X134.724 Y98.376 E6.06577
G1 X135.621 Y99.554 E6.1623
G1 X135.83 Y99.882 E6.18766
G1 X136.058 Y100.319 E6.21979
G1 X136.677 Y101.809 E6.32499
G1 X136.812 Y102.243 E6.35462
G1 X136.919 Y102.737 E6.38757
G1 X137.114 Y104.191 E6.48322
G1 X137.141 Y104.865 E6.52719
G1 X137.121 Y105.212 E6.54986
G1 X136.88 Y106.952 E6.66438
G1 X136.774 Y107.379 E6.69306
G1 X136.618 Y107.839 E6.72473
G1 X136.072 Y109.139 E6.81666
G1 X135.78 Y109.686 E6.85709
G1 X135.5 Y110.101 E6.88972
G1 X134.53 Y111.334 E6.99201
G1 X133.883 Y111.959 E7.05066
G1 X132.695 Y112.864 E7.14802
G1 X132.252 Y113.143 E7.18216
G1 X131.763 Y113.388 E7.21781
G1 X130.577 Y113.88 E7.30153
G1 X129.974 Y114.076 E7.34286
G1 X129.491 Y114.178 E7.37505
G1 X127.988 Y114.379 E7.47391
G1 X127.417 Y114.402 E7.51117
G1 X127.207 Y114.39 E7.52488
G1 X126.961 Y114.607 E7.54627
G1 X125.79 Y115.49 E7.64189
G1 X125.407 Y115.729 E7.67132
G1 X124.968 Y115.949 E7.70333
G1 X123.552 Y116.527 E7.80305
G1 X123.055 Y116.673 E7.83682
G1 X122.731 Y116.741 E7.8584
G1 X121.054 Y116.959 E7.96866
G1 X120.584 Y116.969 E7.99931
G1 X120.181 Y116.942 E8.02564
G1 X118.754 Y116.75 E8.11951
G1 X118.423 Y116.679 E8.14158
G1 X118.243 Y116.816 E8.15633
G1 X118.05 Y116.941 E8.17132
G1 X117.333 Y117.322 E8.22426
G1 X116.093 Y117.825 E8.3115
G1 X115.511 Y117.994 E8.35101
G1 X115.089 Y118.074 E8.37902
G1 X113.727 Y118.242 E8.46849
G1 X113.301 Y118.256 E8.49628
G1 X112.955 Y118.244 E8.51885
G1 X112.666 Y118.214 E8.53779
G1 X111.97 Y118.102 E8.58375
G1 X111.423 Y117.958 E8.62063
G1 X110.93 Y117.771 E8.655
G1 X110.657 Y117.642 E8.67469
G1 X110.194 Y117.364 E8.7099
G1 X109.91 Y117.157 E8.73281
G1 X109.432 Y116.729 E8.77464
G1 X109.141 Y116.396 E8.80347
G1 X70.082 Y116.396 E11.34999
G1 X69.847 Y116.578 E11.36936
G1 X69.375 Y116.867 E11.40545
G1 X68.95 Y117.072 E11.43621
G1 X68.288 Y117.338 E11.48272
G1 X67.764 Y117.499 E11.51846
G1 X67.221 Y117.61 E11.5546
G1 X66.088 Y117.758 E11.62909
G1 X65.277 Y117.79 E11.68201
G1 X65.062 Y117.777 E11.69605
G1 X63.418 Y117.55 E11.80425
G1 X62.991 Y117.444 E11.83293
G1 X62.529 Y117.288 E11.86473
G1 X61.478 Y116.848 E11.93901
G1 X60.844 Y117.056 E11.98251
G1 X60.356 Y117.161 E12.01506
G1 X58.929 Y117.351 E12.10891
G1 X58.493 Y117.378 E12.13739
G1 X57.924 Y117.356 E12.17452
G1 X56.254 Y117.135 E12.28435
G1 X55.953 Y117.068 E12.30445
G1 X55.358 Y116.875 E12.34523
G1 X53.834 Y116.229 E12.45315
G1 X53.669 Y116.141 E12.46534
G1 X53.18 Y115.826 E12.50326
G1 X52.054 Y114.969 E12.59552
G1 X51.532 Y114.487 E12.64184
G1 X51.206 Y114.116 E12.67404
G1 X50.736 Y113.501 E12.7245
G1 X50.048 Y113.286 E12.7715
G1 X48.751 Y112.741 E12.86322
G1 X48.212 Y112.454 E12.90303
G1 X47.893 Y112.241 E12.92804
G1 X46.721 Y111.346 E13.02418
G1 X46.186 Y110.846 E13.07192
G1 X45.903 Y110.527 E13.09973
G1 X45.118 Y109.506 E13.18369
G1 X44.501 Y108.434 E13.26433
G1 X43.991 Y107.199 E13.35145
G1 X43.836 Y106.727 E13.38384
G1 X43.722 Y106.225 E13.4174
G1 X43.513 Y104.67 E13.51969
G1 X43.49 Y104.095 E13.55721
G1 X43.518 Y103.596 E13.58979
G1 X43.725 Y102.075 E13.68987
G1 X43.827 Y101.629 E13.7197
G1 X43.979 Y101.165 E13.75153
G1 X44.58 Y99.724 E13.85332
G1 X44.795 Y99.319 E13.88322
G1 X45.025 Y98.964 E13.9108
G1 X46.033 Y97.65 E14.01877
G1 X46.274 Y97.386 E14.04207
G1 X46.667 Y97.019 E14.07713
G1 X47.944 Y96.038 E14.18212
G1 X48.391 Y95.76 E14.21644
G1 X48.877 Y95.519 E14.2518
G1 X50.287 Y94.951 E14.35091
G1 X50.843 Y94.792 E14.38861
G1 X51.238 Y94.715 E14.41485
G1 X52.626 Y94.535 E14.5061
G1 X53.008 Y94.513 E14.53105
G1 X53.707 Y94.54 E14.57665
G1 X55.087 Y94.723 E14.66741
G1 X55.396 Y94.787 E14.68798
G1 X56.231 Y95.036 E14.74479
G1 X57.472 Y95.554 E14.83247
G1 X58.146 Y95.915 E14.88231
G1 X58.486 Y96.148 E14.90919
G1 X59.617 Y97.027 E15.00258
G1 X59.806 Y97.199 E15.01924
G1 X60.371 Y97.794 E15.07273
G1 X61.026 Y98.648 E15.1429
G1 X61.357 Y98.755 E15.16558
G1 X62.667 Y99.297 E15.25801
G1 X63.341 Y99.657 E15.30783
G1 X63.584 Y99.821 E15.32694
G1 X63.781 Y99.786 E15.33998
G1 X63.789 Y80.094 E16.62383
G1 X63.867 Y79.422 E16.66794
G1 X64.028 Y78.781 E16.71103
G1 X64.058 Y78.69 E16.71728
G1 X64.237 Y78.26 E16.74764
G1 X64.468 Y77.826 E16.7797
G1 X64.791 Y77.343 E16.81758
G1 X65 Y77.096 E16.83867
G1 X65.377 Y76.726 E16.87311
G0 F6000 X65.833 Y77.291
G1 F900 X66.2 Y76.995 E16.90385
G1 X66.571 Y76.76 E16.93248
G1 X66.774 Y76.659 E16.94727
G1 X67.046 Y76.545 E16.96649
G1 X67.496 Y76.399 E16.99734
G1 X67.775 Y76.335 E17.016
G1 X68.235 Y76.268 E17.04631
G1 X68.406 Y76.257 E17.05748
G1 X111.5 Y76.255 E19.86706
G1 X112.103 Y76.31 E19.90653
G1 X112.434 Y76.376 E19.92854
G1 X112.783 Y76.478 E19.95225
G1 X113.152 Y76.629 E19.97824
G1 X113.522 Y76.822 E20.00545
G1 X113.942 Y77.099 E20.03825
G1 X114.138 Y77.261 E20.05483
G1 X114.457 Y77.581 E20.08428
G1 X114.753 Y77.948 E20.11502
G1 X114.988 Y78.319 E20.14366
G1 X115.089 Y78.522 E20.15844
G1 X115.203 Y78.794 E20.17767
G1 X115.349 Y79.244 E20.20851
G1 X115.413 Y79.523 E20.22717
G1 X115.48 Y79.983 E20.25748
G1 X115.491 Y80.154 E20.26865
G1 X115.493 Y100.434 E21.59084
G1 X116.075 Y99.995 E21.63837
G1 X116.349 Y99.824 E21.65942
G1 X116.79 Y99.603 E21.69158
G1 X118.184 Y99.042 E21.78955
G1 X118.725 Y98.895 E21.8261
G1 X118.869 Y98.868 E21.83565
G1 X120.245 Y98.686 E21.92614
G1 X120.799 Y98.664 E21.96229
G1 X120.948 Y98.672 E21.97202
G1 X121.526 Y98.106 E22.02476
G1 X122.713 Y97.202 E22.12204
G1 X123.102 Y96.96 E22.15191
G1 X123.485 Y96.771 E22.17975
G1 X124.798 Y96.233 E22.27226
G1 X125.255 Y96.094 E22.3034
G1 X125.677 Y96.009 E22.33147
G1 X126.962 Y95.84 E22.41597
G1 X127.555 Y95.813 E22.45467
G1 X127.903 Y95.834 E22.4774
G1 X129.443 Y96.038 E22.57868
G1 X130.032 Y96.186 E22.61827
G1 X130.206 Y96.248 E22.63032
G1 X131.587 Y96.821 E22.7278
G1 X131.915 Y96.99 E22.75185
G1 X132.384 Y97.294 E22.78829
G1 X133.411 Y98.081 E22.87265
G1 X134.146 Y98.816 E22.94042
G1 X135.043 Y99.994 E23.03695
G1 X135.186 Y100.218 E23.05427
G1 X135.414 Y100.655 E23.08641
G1 X135.985 Y102.03 E23.18348
G1 X136.103 Y102.4 E23.2088
G1 X136.199 Y102.834 E23.23778
G1 X136.394 Y104.288 E23.33342
G1 X136.416 Y104.823 E23.36833
G1 X136.396 Y105.17 E23.39099
G1 X136.174 Y106.782 E23.49708
G1 X136.086 Y107.148 E23.52162
G1 X135.948 Y107.559 E23.54989
G1 X135.429 Y108.802 E23.63771
G1 X135.177 Y109.282 E23.67305
G1 X134.929 Y109.652 E23.70209
G1 X133.959 Y110.885 E23.80437
G1 X133.443 Y111.381 E23.85104
G1 X132.255 Y112.286 E23.9484
G1 X131.925 Y112.495 E23.97387
G1 X131.485 Y112.717 E24.006
G1 X130.299 Y113.209 E24.08971
G1 X129.82 Y113.366 E24.12258
G1 X129.395 Y113.458 E24.15093
G1 X127.892 Y113.659 E24.24979
G1 X127.457 Y113.677 E24.27818
G1 X126.948 Y113.649 E24.31141
G1 X126.524 Y114.027 E24.34845
G1 X125.353 Y114.91 E24.44406
G1 X125.079 Y115.081 E24.46512
G1 X124.692 Y115.277 E24.4934
G1 X123.344 Y115.831 E24.58842
G1 X122.906 Y115.962 E24.61823
G1 X122.582 Y116.03 E24.63981
G1 X121.034 Y116.233 E24.7416
G1 X120.629 Y116.244 E24.76801
G1 X120.278 Y116.222 E24.79094
G1 X118.851 Y116.03 E24.88481
G1 X118.426 Y115.936 E24.91319
G1 X118.267 Y115.885 E24.92408
G1 X117.803 Y116.238 E24.96209
G1 X117.661 Y116.328 E24.97305
G1 X117.058 Y116.65 E25.01762
G1 X115.887 Y117.129 E25.1001
G1 X115.374 Y117.281 E25.13499
G1 X115 Y117.353 E25.15982
G1 X113.638 Y117.521 E25.24929
G1 X113.283 Y117.53 E25.27244
G1 X113.21 Y117.52 E25.27724
G1 X113.026 Y117.521 E25.28924
G1 X112.781 Y117.497 E25.30529
G1 X112.085 Y117.385 E25.35125
G1 X111.68 Y117.279 E25.37855
G1 X111.187 Y117.092 E25.41292
G1 X111.028 Y117.018 E25.42436
G1 X110.622 Y116.777 E25.45514
G1 X110.338 Y116.57 E25.47805
G1 X109.975 Y116.247 E25.50973
G1 X109.716 Y115.955 E25.53518
G1 X109.519 Y115.67 E25.55776
G1 X69.827 Y115.67 E28.14554
G1 X69.463 Y115.962 E28.17597
G1 X69.058 Y116.214 E28.20707
G1 X68.679 Y116.398 E28.23453
G1 X68.017 Y116.664 E28.28105
G1 X67.616 Y116.788 E28.30841
G1 X67.127 Y116.89 E28.34098
G1 X65.994 Y117.038 E28.41548
G1 X65.321 Y117.065 E28.45939
G1 X65.106 Y117.052 E28.47343
G1 X63.588 Y116.844 E28.57332
G1 X63.222 Y116.756 E28.59787
G1 X62.81 Y116.618 E28.62619
G1 X61.686 Y116.147 E28.70565
G1 X61.504 Y116.051 E28.71906
G1 X61.167 Y116.191 E28.74286
G1 X60.689 Y116.347 E28.77564
G1 X60.26 Y116.441 E28.80427
G1 X58.833 Y116.631 E28.89813
G1 X58.451 Y116.653 E28.92307
G1 X58.019 Y116.636 E28.95126
G1 X56.349 Y116.415 E29.06109
G1 X56.12 Y116.361 E29.07643
G1 X55.584 Y116.185 E29.11321
G1 X54.176 Y115.588 E29.21291
G1 X54.011 Y115.5 E29.22511
G1 X53.62 Y115.248 E29.25543
G1 X52.494 Y114.391 E29.34769
G1 X52.076 Y114.006 E29.38474
G1 X51.783 Y113.675 E29.41356
G1 X51.148 Y112.844 E29.48175
G1 X50.903 Y112.796 E29.49802
G1 X50.328 Y112.616 E29.5373
G1 X49.088 Y112.098 E29.62492
G1 X48.613 Y111.849 E29.65988
G1 X48.334 Y111.664 E29.68171
G1 X47.162 Y110.769 E29.77785
G1 X46.728 Y110.363 E29.8166
G1 X46.479 Y110.084 E29.84098
G1 X45.694 Y109.063 E29.92494
G1 X45.172 Y108.156 E29.99317
G1 X44.681 Y106.972 E30.07674
G1 X44.526 Y106.5 E30.10913
G1 X44.442 Y106.128 E30.13399
G1 X44.233 Y104.573 E30.23628
G1 X44.215 Y104.136 E30.2648
G1 X44.243 Y103.637 E30.29738
G1 X44.434 Y102.232 E30.38983
G1 X44.518 Y101.852 E30.4152
G1 X44.65 Y101.443 E30.44322
G1 X45.224 Y100.06 E30.54084
G1 X45.406 Y99.711 E30.56651
G1 X45.602 Y99.405 E30.5902
G1 X46.573 Y98.136 E30.69437
G1 X46.77 Y97.917 E30.71358
G1 X47.163 Y97.55 E30.74863
G1 X48.385 Y96.615 E30.84895
G1 X48.77 Y96.379 E30.87839
G1 X49.15 Y96.192 E30.906
G1 X50.49 Y95.648 E31.00029
G1 X50.985 Y95.504 E31.0339
G1 X51.332 Y95.435 E31.05697
G1 X52.668 Y95.26 E31.14481
G1 X53.05 Y95.238 E31.16976
G1 X53.612 Y95.26 E31.20643
G1 X54.992 Y95.443 E31.29719
G1 X55.244 Y95.497 E31.31399
G1 X55.951 Y95.706 E31.36206
G1 X57.192 Y96.224 E31.44973
G1 X57.737 Y96.515 E31.49001
G1 X58.041 Y96.722 E31.51399
G1 X59.134 Y97.569 E31.60414
G1 X59.282 Y97.701 E31.61707
G1 X59.795 Y98.236 E31.66539
G1 X60.589 Y99.271 E31.75044
G1 X61.079 Y99.426 E31.78395
G1 X62.389 Y99.968 E31.87638
G1 X62.935 Y100.259 E31.91672
G1 X63.2 Y100.438 E31.93756
G1 X63.416 Y100.603 E31.95529
G1 X63.812 Y100.514 E31.98175
G1 X64.507 Y100.423 E32.02745
G1 X64.51 Y80.178 E33.34735
G1 X64.588 Y79.506 E33.39146
G1 X64.73 Y78.965 E33.42792
G1 X64.881 Y78.596 E33.45392
G1 X65.074 Y78.226 E33.48112
G1 X65.351 Y77.806 E33.51392
G1 X65.513 Y77.61 E33.5305
G1 X65.833 Y77.291 E33.55996
G0 F6000 X66.295 Y77.851
G1 F900 X66.593 Y77.605 E33.58515
G1 X66.899 Y77.408 E33.60888
G1 X67.055 Y77.329 E33.62028
G1 X67.327 Y77.215 E33.63951
G1 X67.658 Y77.107 E33.66221
G1 X67.937 Y77.043 E33.68087
G1 X68.282 Y76.993 E33.7036
G1 X68.453 Y76.982 E33.71477
G1 X111.5 Y76.981 E36.52129
G1 X111.961 Y77.022 E36.55146
G1 X112.292 Y77.088 E36.57346
G1 X112.513 Y77.152 E36.58847
G1 X112.822 Y77.276 E36.61017
G1 X113.128 Y77.432 E36.63257
G1 X113.479 Y77.659 E36.65982
G1 X113.675 Y77.821 E36.6764
G1 X113.897 Y78.043 E36.69687
G1 X114.143 Y78.341 E36.72206
G1 X114.34 Y78.647 E36.74579
G1 X114.419 Y78.803 E36.75719
G1 X114.533 Y79.075 E36.77641
G1 X114.641 Y79.406 E36.79911
G1 X114.705 Y79.685 E36.81778
G1 X114.755 Y80.03 E36.8405
G1 X114.766 Y80.201 E36.85168
G1 X114.767 Y101.863 E38.26396
G1 X114.894 Y101.875 E38.27228
G1 X114.997 Y101.765 E38.2821
G1 X115.34 Y101.458 E38.31212
G1 X116.512 Y100.575 E38.40779
G1 X116.727 Y100.444 E38.4242
G1 X117.063 Y100.276 E38.44869
G1 X118.377 Y99.742 E38.54116
G1 X118.859 Y99.609 E38.57376
G1 X119.003 Y99.582 E38.58331
G1 X120.34 Y99.406 E38.67123
G1 X120.762 Y99.389 E38.69877
G1 X121.093 Y99.406 E38.72038
G1 X121.271 Y99.428 E38.73207
G1 X121.454 Y99.192 E38.75154
G1 X121.966 Y98.684 E38.79856
G1 X123.153 Y97.78 E38.89584
G1 X123.427 Y97.609 E38.9169
G1 X123.761 Y97.442 E38.94124
G1 X125.009 Y96.928 E39.02924
G1 X125.466 Y96.789 E39.06038
G1 X125.772 Y96.729 E39.08071
G1 X127.057 Y96.56 E39.16521
G1 X127.515 Y96.538 E39.19511
G1 X127.808 Y96.554 E39.21424
G1 X129.348 Y96.758 E39.31552
G1 X129.793 Y96.872 E39.34547
G1 X129.928 Y96.919 E39.35479
G1 X131.309 Y97.492 E39.45226
G1 X131.578 Y97.633 E39.47207
G1 X131.942 Y97.87 E39.50038
G1 X132.969 Y98.657 E39.58474
G1 X133.569 Y99.257 E39.64006
G1 X134.431 Y100.385 E39.73262
G1 X134.574 Y100.609 E39.74994
G1 X134.744 Y100.934 E39.77386
G1 X135.295 Y102.257 E39.86729
G1 X135.395 Y102.561 E39.88816
G1 X135.479 Y102.931 E39.91289
G1 X135.674 Y104.385 E40.00854
G1 X135.691 Y104.781 E40.03438
G1 X135.671 Y105.128 E40.05704
G1 X135.467 Y106.618 E40.15509
G1 X135.397 Y106.92 E40.1753
G1 X135.278 Y107.279 E40.19996
G1 X134.759 Y108.522 E40.28778
G1 X134.536 Y108.941 E40.31872
G1 X134.357 Y109.205 E40.33952
G1 X133.452 Y110.365 E40.43544
G1 X133.003 Y110.803 E40.47634
G1 X131.815 Y111.708 E40.5737
G1 X131.541 Y111.879 E40.59476
G1 X131.207 Y112.046 E40.61911
G1 X130.021 Y112.538 E40.70282
G1 X129.662 Y112.657 E40.72748
G1 X129.299 Y112.738 E40.75172
G1 X127.796 Y112.939 E40.85059
G1 X127.494 Y112.952 E40.87029
G1 X127.046 Y112.929 E40.89954
G1 X126.659 Y112.877 E40.925
G1 X126.546 Y113.017 E40.93673
G1 X126.425 Y113.145 E40.94821
G1 X126.087 Y113.447 E40.97776
G1 X124.916 Y114.33 E41.07338
G1 X124.701 Y114.461 E41.0898
G1 X124.367 Y114.628 E41.11414
G1 X123.136 Y115.135 E41.20094
G1 X122.698 Y115.266 E41.23074
G1 X122.486 Y115.31 E41.24486
G1 X121.014 Y115.507 E41.34169
G1 X120.609 Y115.518 E41.3681
G1 X120.375 Y115.502 E41.38339
G1 X118.948 Y115.31 E41.47727
G1 X118.586 Y115.228 E41.50146
G1 X118.137 Y115.071 E41.53248
G1 X117.403 Y115.632 E41.59271
G1 X117.315 Y115.69 E41.59958
G1 X116.782 Y115.979 E41.63911
G1 X115.676 Y116.434 E41.71708
G1 X115.232 Y116.569 E41.74733
G1 X114.91 Y116.633 E41.76874
G1 X113.62 Y116.795 E41.8535
G1 X113.265 Y116.804 E41.87665
G1 X113.195 Y116.794 E41.88126
G1 X113.097 Y116.798 E41.88766
G1 X112.852 Y116.774 E41.90371
G1 X112.26 Y116.68 E41.94279
G1 X111.937 Y116.6 E41.96448
G1 X111.444 Y116.413 E41.99886
G1 X111.345 Y116.365 E42.00603
