;FLAVOR:Marlin
;TIME:4377
;Filament used: 3.60154m
;Layer height: 0.2
;MINX:62.382
;MINY:49.294
;MINZ:0.2
;MAXX:137.618
;MAXY:120.302
;MAXZ:10
;TARGET_MACHINE.NAME:Kingroon KP3S
;Generated with Cura_SteamEngine 5.8.1
M140 S75
M105
M190 S75
M104 S220
M105
M109 S220
M82 ;absolute extrusion mode
G28 ; home all axes
 M117 Purge extruder
 G92 E0 ; reset extruder
 G1 Z1.0 F3000 ; move z up little to prevent scratching of surface
 G1 X2 Y20 Z0.3 F5000.0 ; move to start-line position
 G1 X2 Y175.0 Z0.3 F1500.0 E15 ; draw 1st line
 G1 X2 Y175.0 Z0.4 F5000.0 ; move to side a little
 G1 X2 Y20 Z0.4 F1500.0 E30 ; draw 2nd line
 G92 E0 ; reset extruder
 G1 Z1.0 F3000 ; move z up little to prevent scratching of surface
G92 E0
G92 E0
G1 F3000 E-6
;LAYER_COUNT:48
;LAYER:0
M107
G1 F240 Z0.6
;MESH:USBC_CAP.stl(13)
G0 F6000 X64.331 Y53.102 Z0.6
;TYPE:WALL-INNER
G1 F240 Z0.2
G1 F3000 E0
G1 F900 X64.189 Y53.287 E0.01774
G1 X63.996 Y53.614 E0.04662
G1 X63.891 Y53.854 E0.06655
G1 X63.785 Y54.194 E0.09364
G1 X63.736 Y54.469 E0.11488
G1 X63.716 Y54.806 E0.14056
G1 X63.735 Y55.122 E0.16464
G1 X63.785 Y55.401 E0.1862
G1 X63.89 Y55.737 E0.21297
G1 X64 Y55.987 E0.23375
G1 X64.189 Y56.31 E0.26221
G1 X64.332 Y56.497 E0.28012
G1 X64.614 Y56.784 E0.31073
G1 X64.779 Y56.917 E0.32684
G1 X65.144 Y57.142 E0.35946
G1 X65.313 Y57.223 E0.37371
G1 X65.733 Y57.362 E0.40736
G1 X65.909 Y57.399 E0.42104
G1 X66.37 Y57.437 E0.45623
G1 X66.874 Y57.415 E0.4946
G1 X67.11 Y57.431 E0.51259
G1 X67.32 Y57.491 E0.5292
G1 X67.489 Y57.575 E0.54356
G1 X67.617 Y57.666 E0.5555
G1 X67.701 Y57.745 E0.56428
G1 X67.796 Y57.856 E0.57539
G1 X67.926 Y58.086 E0.59548
G1 X68.009 Y58.492 E0.627
G1 X68.014 Y58.967 E0.66314
G1 X71.986 Y58.967 E0.96526
G1 X71.991 Y58.488 E1.00169
G1 X72.073 Y58.083 E1.03312
G1 X72.203 Y57.853 E1.05322
G1 X72.298 Y57.742 E1.06433
G1 X72.382 Y57.663 E1.0731
G1 X72.511 Y57.571 E1.08515
G1 X72.682 Y57.486 E1.09968
G1 X72.895 Y57.426 E1.11651
G1 X73.139 Y57.412 E1.1351
G1 X73.592 Y57.436 E1.16961
G1 X74.097 Y57.399 E1.20812
G1 X74.256 Y57.366 E1.22047
G1 X74.686 Y57.221 E1.25499
G1 X74.855 Y57.144 E1.26911
G1 X75.222 Y56.911 E1.30218
G1 X75.384 Y56.782 E1.31793
G1 X75.664 Y56.497 E1.34832
G1 X75.809 Y56.307 E1.3665
G1 X76.002 Y55.984 E1.39512
G1 X76.109 Y55.739 E1.41546
G1 X76.211 Y55.408 E1.4418
G1 X76.26 Y55.127 E1.4635
G1 X76.28 Y54.802 E1.48826
G1 X76.26 Y54.47 E1.51356
G1 X76.211 Y54.191 E1.53511
G1 X76.109 Y53.856 E1.56174
G1 X75.999 Y53.607 E1.58245
G1 X75.807 Y53.29 E1.61064
G1 X75.669 Y53.106 E1.62813
G1 X75.372 Y52.805 E1.6603
G1 X75.214 Y52.674 E1.67591
G1 X74.859 Y52.454 E1.70768
G1 X74.693 Y52.378 E1.72156
G1 X74.26 Y52.232 E1.75632
G1 X74.101 Y52.201 E1.76864
G1 X73.627 Y52.16 E1.80483
G1 X73.13 Y52.184 E1.84268
G1 X72.892 Y52.17 E1.86081
G1 X72.679 Y52.111 E1.87762
G1 X72.508 Y52.026 E1.89215
G1 X72.379 Y51.934 E1.9042
G1 X72.294 Y51.854 E1.91308
G1 X72.199 Y51.743 E1.92419
G1 X72.068 Y51.511 E1.94446
G1 X71.987 Y51.105 E1.97595
G1 X71.983 Y50.629 E2.01215
G1 X68.01 Y50.629 E2.31435
G1 X68.005 Y51.108 E2.35079
G1 X67.923 Y51.512 E2.38214
G1 X67.793 Y51.743 E2.4023
G1 X67.698 Y51.854 E2.41342
G1 X67.614 Y51.934 E2.42224
G1 X67.486 Y52.024 E2.43414
G1 X67.317 Y52.109 E2.44853
G1 X67.107 Y52.168 E2.46512
G1 X66.871 Y52.185 E2.48312
G1 X66.404 Y52.16 E2.51869
G1 X65.899 Y52.197 E2.55721
G1 X65.739 Y52.23 E2.56963
G1 X65.31 Y52.373 E2.60403
G1 X65.147 Y52.45 E2.61774
G1 X64.781 Y52.679 E2.65058
G1 X64.611 Y52.818 E2.66728
G1 X64.331 Y53.102 E2.69762
G1 F3000 E-3.30238
G1 F240 Z0.6
G0 F6000 X67.279 Y51.1 Z0.6
;TYPE:WALL-OUTER
G1 F240 Z0.2
G1 F3000 E2.69762
G1 F900 X67.252 Y51.235 E2.70809
G1 X67.209 Y51.312 E2.7148
G1 X67.149 Y51.376 E2.72147
G1 X67.05 Y51.434 E2.7302
G1 X66.98 Y51.454 E2.73573
G1 X66.896 Y51.459 E2.74213
G1 X66.396 Y51.432 E2.78022
G1 X65.799 Y51.477 E2.82576
G1 X65.551 Y51.528 E2.84502
G1 X65.04 Y51.698 E2.88598
G1 X64.799 Y51.812 E2.90626
G1 X64.357 Y52.088 E2.94589
G1 X64.121 Y52.281 E2.96908
G1 X63.783 Y52.624 E3.00571
G1 X63.586 Y52.88 E3.03028
G1 X63.348 Y53.282 E3.06582
G1 X63.209 Y53.6 E3.09221
G1 X63.078 Y54.022 E3.12582
G1 X63.014 Y54.383 E3.15371
G1 X62.988 Y54.807 E3.18602
G1 X63.013 Y55.208 E3.21658
G1 X63.078 Y55.573 E3.24478
G1 X63.209 Y55.992 E3.27817
G1 X63.352 Y56.318 E3.30525
G1 X63.586 Y56.716 E3.34037
G1 X63.783 Y56.973 E3.365
G1 X64.125 Y57.322 E3.40216
G1 X64.359 Y57.511 E3.42504
G1 X64.795 Y57.78 E3.46401
G1 X65.041 Y57.898 E3.48476
G1 X65.543 Y58.064 E3.52498
G1 X65.805 Y58.119 E3.54534
G1 X66.356 Y58.164 E3.58739
G1 X66.904 Y58.141 E3.62911
G1 X66.984 Y58.146 E3.63521
G1 X67.054 Y58.166 E3.64075
G1 X67.153 Y58.224 E3.64947
G1 X67.212 Y58.288 E3.6561
G1 X67.256 Y58.364 E3.66277
G1 X67.283 Y58.5 E3.67332
G1 X67.296 Y59.693 E3.76407
G1 X72.704 Y59.693 E4.17542
G1 X72.717 Y58.496 E4.26647
G1 X72.744 Y58.361 E4.27694
G1 X72.787 Y58.284 E4.28365
G1 X72.847 Y58.221 E4.29027
G1 X72.947 Y58.162 E4.2991
G1 X73.018 Y58.142 E4.30471
G1 X73.1 Y58.137 E4.31096
G1 X73.6 Y58.164 E4.34904
G1 X74.197 Y58.119 E4.39458
G1 X74.445 Y58.068 E4.41384
G1 X74.954 Y57.897 E4.45468
G1 X75.202 Y57.784 E4.47541
G1 X75.644 Y57.503 E4.51525
G1 X75.872 Y57.322 E4.53739
G1 X76.213 Y56.973 E4.57451
G1 X76.411 Y56.715 E4.59924
G1 X76.648 Y56.317 E4.63448
G1 X76.791 Y55.993 E4.66141
G1 X76.918 Y55.578 E4.69443
G1 X76.982 Y55.213 E4.72261
G1 X77.008 Y54.801 E4.75401
G1 X76.982 Y54.384 E4.78579
G1 X76.918 Y54.021 E4.81383
G1 X76.791 Y53.603 E4.84706
G1 X76.645 Y53.272 E4.87458
G1 X76.41 Y52.884 E4.90908
G1 X76.22 Y52.63 E4.93321
G1 X75.862 Y52.269 E4.97188
G1 X75.639 Y52.084 E4.99392
G1 X75.203 Y51.813 E5.03296
G1 X74.961 Y51.702 E5.05321
G1 X74.446 Y51.528 E5.09456
G1 X74.201 Y51.481 E5.11354
G1 X73.641 Y51.432 E5.15629
G1 X73.094 Y51.459 E5.19795
G1 X73.014 Y51.454 E5.20405
G1 X72.943 Y51.435 E5.20964
G1 X72.843 Y51.376 E5.21847
G1 X72.783 Y51.312 E5.22514
G1 X72.74 Y51.235 E5.23185
G1 X72.713 Y51.099 E5.2424
G1 X72.703 Y49.903 E5.33337
G1 X67.292 Y49.903 E5.74495
G1 X67.279 Y51.1 E5.836
G0 F6000 X68.385 Y51.758
;TYPE:SKIN
G1 F900 X68.424 Y51.653 E5.84452
G1 X68.524 Y51.155 E5.88315
G1 X71.463 Y51.155 E6.1067
G1 X71.564 Y51.649 E6.14505
G1 X71.603 Y51.754 E6.15357
G1 X71.778 Y52.062 E6.18052
G1 X71.909 Y52.215 E6.19584
G1 X72.043 Y52.34 E6.20978
G1 X72.226 Y52.474 E6.22703
G1 X72.482 Y52.6 E6.24873
G1 X72.82 Y52.692 E6.27538
G1 X72.923 Y52.706 E6.28328
G1 X73.167 Y52.711 E6.30185
G1 X73.62 Y52.688 E6.33635
G1 X74.017 Y52.725 E6.36668
G1 X74.123 Y52.745 E6.37488
G1 X74.497 Y52.87 E6.40487
G1 X74.608 Y52.921 E6.41417
G1 X74.902 Y53.102 E6.44043
G1 X75.011 Y53.189 E6.45103
G1 X75.269 Y53.455 E6.47922
G1 X75.367 Y53.582 E6.49142
G1 X75.525 Y53.844 E6.51469
G1 X75.615 Y54.048 E6.53165
G1 X75.695 Y54.307 E6.55227
G1 X75.734 Y54.523 E6.56897
G1 X75.748 Y54.797 E6.58984
G1 X75.73 Y55.072 E6.6108
G1 X75.694 Y55.278 E6.6267
G1 X75.61 Y55.55 E6.64836
G1 X75.528 Y55.741 E6.66417
G1 X75.366 Y56.008 E6.68792
G1 X75.259 Y56.151 E6.70151
G1 X75.033 Y56.384 E6.7262
G1 X74.91 Y56.479 E6.73802
G1 X74.597 Y56.68 E6.76631
G1 X74.497 Y56.726 E6.77468
G1 X74.118 Y56.855 E6.80514
G1 X74.023 Y56.871 E6.81246
G1 X73.595 Y56.904 E6.84512
G1 X73.176 Y56.881 E6.87703
G1 X72.827 Y56.9 E6.90362
G1 X72.485 Y56.993 E6.93058
G1 X72.261 Y57.103 E6.94956
G1 X72.04 Y57.26 E6.97018
G1 X71.939 Y57.351 E6.98052
G1 X71.779 Y57.536 E6.99912
G1 X71.608 Y57.832 E7.02512
G1 X71.568 Y57.939 E7.03381
G1 X71.467 Y58.436 E7.07239
G1 X68.529 Y58.436 E7.29586
G1 X68.428 Y57.94 E7.33436
G1 X68.388 Y57.832 E7.34312
G1 X68.217 Y57.536 E7.36912
G1 X68.104 Y57.404 E7.38234
G1 X67.953 Y57.256 E7.39842
G1 X67.76 Y57.12 E7.41638
G1 X67.544 Y57.013 E7.43472
G1 X67.2 Y56.909 E7.46205
G1 X66.877 Y56.889 E7.48667
G1 X66.374 Y56.908 E7.52495
G1 X65.985 Y56.872 E7.55467
G1 X65.866 Y56.848 E7.5639
G1 X65.512 Y56.73 E7.59228
G1 X65.398 Y56.676 E7.60188
G1 X65.077 Y56.478 E7.63057
G1 X64.976 Y56.398 E7.64037
G1 X64.731 Y56.145 E7.66716
G1 X64.621 Y56.003 E7.68082
G1 X64.468 Y55.745 E7.70363
G1 X64.385 Y55.556 E7.71933
G1 X64.294 Y55.267 E7.74238
G1 X64.262 Y55.07 E7.75756
G1 X64.244 Y54.799 E7.77822
G1 X64.261 Y54.514 E7.79994
G1 X64.297 Y54.328 E7.81435
G1 X64.389 Y54.029 E7.83814
G1 X64.464 Y53.864 E7.85193
G1 X64.631 Y53.579 E7.87705
G1 X64.728 Y53.45 E7.88933
G1 X64.97 Y53.205 E7.91552
G1 X65.092 Y53.105 E7.92752
G1 X65.401 Y52.914 E7.95515
G1 X65.508 Y52.86 E7.96427
G1 X65.867 Y52.741 E7.99304
G1 X65.976 Y52.721 E8.00146
G1 X66.399 Y52.688 E8.03374
G1 X66.832 Y52.707 E8.0667
G1 X67.157 Y52.691 E8.09145
G1 X67.234 Y52.678 E8.09739
G1 X67.514 Y52.598 E8.11954
G1 X67.76 Y52.476 E8.14043
G1 X67.956 Y52.336 E8.15875
G1 X68.079 Y52.219 E8.17166
G1 X68.199 Y52.078 E8.18575
G1 X68.385 Y51.758 E8.2139
G1 F3000 E2.2139
G1 F240 Z0.6
G0 F6000 X73.588 Y53.054 Z0.6
G1 F240 Z0.2
G1 F3000 E8.2139
G1 F900 X75.382 Y54.847 E8.40682
G0 F6000 X75.158 Y55.651
G1 F900 X72.485 Y52.977 E8.69441
G1 F3000 E2.69441
G1 F240 Z0.6
G0 F6000 X71.204 Y51.696 Z0.6
G1 F240 Z0.2
G1 F3000 E8.69441
G1 F900 X71.026 Y51.518 E8.71356
G0 F6000 X69.999 Y51.518
G1 F900 X74.678 Y56.197 E9.21687
G0 F6000 X73.962 Y56.508
G1 F900 X68.973 Y51.518 E9.75358
G0 F6000 X68.577 Y52.15
G1 F900 X72.957 Y56.53 E10.22474
G0 F6000 X72.154 Y56.753
G1 F900 X68.087 Y52.686 E10.66222
G0 F6000 X67.387 Y53.013
G1 F900 X71.584 Y57.21 E11.11368
G0 F6000 X71.213 Y57.866
G1 F900 X66.4 Y53.053 E11.63141
G0 F6000 X65.566 Y53.245
G1 F900 X70.394 Y58.073 E12.15075
G0 F6000 X69.367 Y58.073
G1 F900 X64.994 Y53.7 E12.62115
G0 F6000 X64.657 Y54.39
G1 F900 X66.794 Y56.527 E12.85103
G0 F6000 X65.62 Y56.38
G1 F900 X64.768 Y55.528 E12.94268
G1 F3000 E6.94268
G1 F240 Z0.6
;MESH:USBC_CAP.stl(4)
G0 F6000 X96.002 Y55.984 Z0.6
;TYPE:WALL-INNER
G1 F240 Z0.2
G1 F3000 E12.94268
G1 F900 X96.109 Y55.739 E12.96301
G1 X96.211 Y55.408 E12.98936
G1 X96.26 Y55.127 E13.01105
G1 X96.28 Y54.802 E13.03582
G1 X96.26 Y54.47 E13.06112
G1 X96.211 Y54.191 E13.08266
G1 X96.109 Y53.856 E13.1093
G1 X95.999 Y53.607 E13.13001
G1 X95.807 Y53.29 E13.15819
G1 X95.669 Y53.106 E13.17569
G1 X95.372 Y52.805 E13.20785
G1 X95.214 Y52.674 E13.22346
G1 X94.859 Y52.454 E13.25523
G1 X94.693 Y52.378 E13.26912
G1 X94.26 Y52.232 E13.30388
G1 X94.101 Y52.201 E13.3162
G1 X93.627 Y52.16 E13.35238
G1 X93.13 Y52.184 E13.39023
G1 X92.892 Y52.17 E13.40837
G1 X92.679 Y52.111 E13.42518
G1 X92.508 Y52.026 E13.4397
G1 X92.379 Y51.934 E13.45175
G1 X92.294 Y51.854 E13.46063
G1 X92.199 Y51.743 E13.47175
G1 X92.068 Y51.511 E13.49201
G1 X91.987 Y51.105 E13.5235
G1 X91.983 Y50.629 E13.55971
G1 X88.01 Y50.629 E13.86191
G1 X88.005 Y51.108 E13.89834
G1 X87.923 Y51.512 E13.9297
G1 X87.793 Y51.743 E13.94986
G1 X87.698 Y51.854 E13.96097
G1 X87.614 Y51.934 E13.96979
G1 X87.486 Y52.024 E13.9817
G1 X87.317 Y52.109 E13.99609
G1 X87.107 Y52.168 E14.01268
G1 X86.871 Y52.185 E14.03067
G1 X86.404 Y52.16 E14.06625
G1 X85.899 Y52.197 E14.10476
G1 X85.739 Y52.23 E14.11719
G1 X85.31 Y52.373 E14.15158
G1 X85.147 Y52.45 E14.1653
G1 X84.781 Y52.679 E14.19813
G1 X84.611 Y52.818 E14.21484
G1 X84.331 Y53.102 E14.24517
G1 X84.189 Y53.287 E14.26291
G1 X83.996 Y53.614 E14.29179
G1 X83.891 Y53.854 E14.31172
G1 X83.785 Y54.194 E14.33881
G1 X83.736 Y54.469 E14.36005
G1 X83.716 Y54.806 E14.38573
G1 X83.735 Y55.122 E14.40981
G1 X83.785 Y55.401 E14.43137
G1 X83.89 Y55.737 E14.45815
G1 X84 Y55.987 E14.47892
G1 X84.189 Y56.31 E14.50739
G1 X84.332 Y56.497 E14.52529
G1 X84.614 Y56.784 E14.5559
G1 X84.779 Y56.917 E14.57202
G1 X85.144 Y57.142 E14.60463
G1 X85.313 Y57.223 E14.61889
G1 X85.733 Y57.362 E14.65254
G1 X85.909 Y57.399 E14.66622
G1 X86.37 Y57.437 E14.7014
G1 X86.874 Y57.415 E14.73977
G1 X87.11 Y57.431 E14.75776
G1 X87.32 Y57.491 E14.77438
G1 X87.489 Y57.575 E14.78873
G1 X87.617 Y57.666 E14.80068
G1 X87.701 Y57.745 E14.80945
G1 X87.796 Y57.856 E14.82056
G1 X87.926 Y58.086 E14.84066
G1 X88.009 Y58.492 E14.87218
G1 X88.014 Y58.967 E14.90831
G1 X91.986 Y58.967 E15.21043
G1 X91.991 Y58.488 E15.24686
G1 X92.073 Y58.083 E15.2783
G1 X92.203 Y57.853 E15.29839
G1 X92.298 Y57.742 E15.3095
G1 X92.382 Y57.663 E15.31827
G1 X92.511 Y57.571 E15.33033
G1 X92.682 Y57.486 E15.34485
G1 X92.895 Y57.426 E15.36168
G1 X93.139 Y57.412 E15.38027
G1 X93.592 Y57.436 E15.41478
G1 X94.097 Y57.399 E15.45329
G1 X94.256 Y57.366 E15.46564
G1 X94.686 Y57.221 E15.50016
G1 X94.855 Y57.144 E15.51429
G1 X95.222 Y56.911 E15.54735
G1 X95.384 Y56.782 E15.5631
G1 X95.664 Y56.497 E15.59349
G1 X95.809 Y56.307 E15.61167
G1 X96.002 Y55.984 E15.64029
G1 F3000 E9.64029
G1 F240 Z0.6
G0 F6000 X86.896 Y51.459 Z0.6
;TYPE:WALL-OUTER
G1 F240 Z0.2
G1 F3000 E15.64029
G1 F900 X86.396 Y51.432 E15.67838
G1 X85.799 Y51.477 E15.72392
G1 X85.551 Y51.528 E15.74318
G1 X85.04 Y51.698 E15.78414
G1 X84.799 Y51.812 E15.80442
G1 X84.357 Y52.088 E15.84405
G1 X84.121 Y52.281 E15.86724
G1 X83.783 Y52.624 E15.90387
G1 X83.586 Y52.88 E15.92844
G1 X83.348 Y53.282 E15.96397
G1 X83.209 Y53.6 E15.99037
G1 X83.078 Y54.022 E16.02398
G1 X83.014 Y54.383 E16.05187
G1 X82.988 Y54.807 E16.08418
G1 X83.013 Y55.208 E16.11474
G1 X83.078 Y55.573 E16.14294
G1 X83.209 Y55.992 E16.17633
G1 X83.352 Y56.318 E16.20341
G1 X83.586 Y56.716 E16.23852
G1 X83.783 Y56.973 E16.26316
G1 X84.125 Y57.322 E16.30032
G1 X84.359 Y57.511 E16.3232
G1 X84.795 Y57.78 E16.36217
G1 X85.041 Y57.898 E16.38292
G1 X85.543 Y58.064 E16.42314
G1 X85.805 Y58.119 E16.4435
G1 X86.356 Y58.164 E16.48555
G1 X86.904 Y58.141 E16.52727
G1 X86.984 Y58.146 E16.53337
G1 X87.054 Y58.166 E16.5389
G1 X87.153 Y58.224 E16.54763
G1 X87.212 Y58.288 E16.55425
G1 X87.256 Y58.364 E16.56093
G1 X87.283 Y58.5 E16.57148
G1 X87.296 Y59.693 E16.66223
G1 X92.704 Y59.693 E17.07357
G1 X92.717 Y58.496 E17.16463
G1 X92.744 Y58.361 E17.1751
G1 X92.787 Y58.284 E17.18181
G1 X92.847 Y58.221 E17.18842
G1 X92.947 Y58.162 E17.19725
G1 X93.018 Y58.142 E17.20287
G1 X93.1 Y58.137 E17.20911
G1 X93.6 Y58.164 E17.2472
G1 X94.197 Y58.119 E17.29274
G1 X94.445 Y58.068 E17.312
G1 X94.954 Y57.897 E17.35284
G1 X95.202 Y57.784 E17.37357
G1 X95.644 Y57.503 E17.41341
G1 X95.872 Y57.322 E17.43555
G1 X96.213 Y56.973 E17.47266
G1 X96.411 Y56.715 E17.4974
G1 X96.648 Y56.317 E17.53263
G1 X96.791 Y55.993 E17.55957
G1 X96.918 Y55.578 E17.59258
G1 X96.982 Y55.213 E17.62077
G1 X97.008 Y54.801 E17.65217
G1 X96.982 Y54.384 E17.68395
G1 X96.918 Y54.021 E17.71199
G1 X96.791 Y53.603 E17.74522
G1 X96.645 Y53.272 E17.77273
G1 X96.41 Y52.884 E17.80724
G1 X96.22 Y52.63 E17.83136
G1 X95.862 Y52.269 E17.87003
G1 X95.639 Y52.084 E17.89207
G1 X95.203 Y51.813 E17.93112
G1 X94.961 Y51.702 E17.95137
G1 X94.446 Y51.528 E17.99272
G1 X94.201 Y51.481 E18.01169
G1 X93.641 Y51.432 E18.05445
G1 X93.094 Y51.459 E18.09611
G1 X93.014 Y51.454 E18.10221
G1 X92.943 Y51.435 E18.1078
G1 X92.843 Y51.376 E18.11663
G1 X92.783 Y51.312 E18.1233
G1 X92.74 Y51.235 E18.13001
G1 X92.713 Y51.099 E18.14056
G1 X92.703 Y49.903 E18.23153
G1 X87.292 Y49.903 E18.6431
G1 X87.279 Y51.1 E18.73416
G1 X87.252 Y51.235 E18.74463
G1 X87.209 Y51.312 E18.75134
G1 X87.149 Y51.376 E18.75801
G1 X87.05 Y51.434 E18.76674
G1 X86.98 Y51.454 E18.77227
G1 X86.896 Y51.459 E18.77867
G1 F3000 E12.77867
G1 F240 Z0.6
G0 F6000 X94.123 Y52.745 Z0.6
;TYPE:SKIN
G1 F240 Z0.2
G1 F3000 E18.77867
G1 F900 X94.497 Y52.87 E18.80867
G1 X94.608 Y52.921 E18.81796
G1 X94.902 Y53.102 E18.84422
G1 X95.011 Y53.189 E18.85483
G1 X95.269 Y53.455 E18.88302
G1 X95.367 Y53.582 E18.89522
G1 X95.525 Y53.844 E18.91849
G1 X95.615 Y54.048 E18.93545
G1 X95.695 Y54.307 E18.95607
G1 X95.734 Y54.523 E18.97276
G1 X95.748 Y54.797 E18.99363
G1 X95.73 Y55.072 E19.01459
G1 X95.694 Y55.278 E19.0305
G1 X95.61 Y55.55 E19.05215
G1 X95.528 Y55.741 E19.06796
G1 X95.366 Y56.008 E19.09172
G1 X95.259 Y56.151 E19.1053
G1 X95.033 Y56.384 E19.12999
G1 X94.91 Y56.479 E19.14181
G1 X94.597 Y56.68 E19.17011
G1 X94.497 Y56.726 E19.17848
G1 X94.118 Y56.855 E19.20893
G1 X94.023 Y56.871 E19.21626
G1 X93.595 Y56.904 E19.24891
G1 X93.176 Y56.881 E19.28083
G1 X92.827 Y56.9 E19.30741
G1 X92.485 Y56.993 E19.33437
G1 X92.261 Y57.103 E19.35335
G1 X92.04 Y57.26 E19.37397
G1 X91.939 Y57.351 E19.38431
G1 X91.779 Y57.536 E19.40292
G1 X91.608 Y57.832 E19.42892
