;FLAVOR:Marlin
;TIME:338
;Filament used: 0.225279m
;Layer height: 0.2
;MINX:82.382
;MINY:40.186
;MINZ:0.2
;MAXX:97.618
;MAXY:51.198
;MAXZ:9.8
;TARGET_MACHINE.NAME:Kingroon KP3S
;Generated with Cura_SteamEngine 5.8.1
M140 S75
M105
M190 S75
M104 S220
M105
M109 S220
M82 ;absolute extrusion mode
G28 ; home all axes
 M117 Purge extruder
 G92 E0 ; reset extruder
 G1 Z1.0 F3000 ; move z up little to prevent scratching of surface
 G1 X2 Y20 Z0.3 F5000.0 ; move to start-line position
 G1 X2 Y175.0 Z0.3 F1500.0 E15 ; draw 1st line
 G1 X2 Y175.0 Z0.4 F5000.0 ; move to side a little
 G1 X2 Y20 Z0.4 F1500.0 E30 ; draw 2nd line
 G92 E0 ; reset extruder
 G1 Z1.0 F3000 ; move z up little to prevent scratching of surface
G92 E0
G92 E0
G1 F3000 E-6
;LAYER_COUNT:48
;LAYER:0
M107
G1 F240 Z0.6
;MESH:USBC_CAP.stl
G0 F6000 X84.333 Y43.991 Z0.6
;TYPE:WALL-INNER
G1 F240 Z0.2
G1 F3000 E0
G1 F900 X84.19 Y44.18 E0.01803
G1 X83.995 Y44.512 E0.04731
G1 X83.891 Y44.747 E0.06686
G1 X83.785 Y45.09 E0.09417
G1 X83.736 Y45.362 E0.11519
G1 X83.715 Y45.698 E0.1408
G1 X83.735 Y46.018 E0.16518
G1 X83.785 Y46.294 E0.18652
G1 X83.891 Y46.637 E0.21383
G1 X83.995 Y46.876 E0.23365
G1 X84.189 Y47.198 E0.26225
G1 X84.339 Y47.398 E0.28126
G1 X84.615 Y47.677 E0.31111
G1 X84.78 Y47.81 E0.32723
G1 X85.142 Y48.036 E0.35969
G1 X85.319 Y48.12 E0.37459
G1 X85.734 Y48.26 E0.40791
G1 X85.895 Y48.291 E0.42038
G1 X86.369 Y48.329 E0.45655
G1 X86.874 Y48.307 E0.495
G1 X87.11 Y48.323 E0.51299
G1 X87.32 Y48.383 E0.5296
G1 X87.49 Y48.467 E0.54402
G1 X87.617 Y48.558 E0.55591
G1 X87.701 Y48.637 E0.56468
G1 X87.796 Y48.748 E0.57579
G1 X87.926 Y48.978 E0.59589
G1 X88.009 Y49.384 E0.62741
G1 X88.014 Y49.859 E0.66354
G1 X91.986 Y49.859 E0.96566
G1 X91.991 Y49.38 E1.00209
G1 X92.073 Y48.975 E1.03353
G1 X92.203 Y48.745 E1.05362
G1 X92.298 Y48.634 E1.06473
G1 X92.382 Y48.555 E1.0735
G1 X92.51 Y48.463 E1.08549
G1 X92.679 Y48.379 E1.09985
G1 X92.889 Y48.319 E1.11646
G1 X93.125 Y48.303 E1.13445
G1 X93.592 Y48.328 E1.17003
G1 X94.106 Y48.291 E1.20922
G1 X94.256 Y48.261 E1.22086
G1 X94.689 Y48.115 E1.25562
G1 X94.845 Y48.042 E1.26872
G1 X95.228 Y47.802 E1.3031
G1 X95.387 Y47.674 E1.31862
G1 X95.655 Y47.401 E1.34772
G1 X95.813 Y47.195 E1.36747
G1 X96.001 Y46.881 E1.3953
G1 X96.108 Y46.633 E1.41585
G1 X96.211 Y46.299 E1.44243
G1 X96.26 Y46.022 E1.46383
G1 X96.28 Y45.693 E1.4889
G1 X96.26 Y45.362 E1.51412
G1 X96.211 Y45.085 E1.53552
G1 X96.109 Y44.753 E1.56194
G1 X95.999 Y44.502 E1.58278
G1 X95.811 Y44.189 E1.61055
G1 X95.661 Y43.989 E1.62957
G1 X95.385 Y43.711 E1.65937
G1 X95.217 Y43.575 E1.67581
G1 X94.855 Y43.346 E1.70839
G1 X94.684 Y43.266 E1.72275
G1 X94.257 Y43.124 E1.75698
G1 X94.103 Y43.093 E1.76893
G1 X93.627 Y43.055 E1.80525
G1 X93.122 Y43.077 E1.84369
G1 X92.886 Y43.061 E1.86169
G1 X92.676 Y43.002 E1.87828
G1 X92.507 Y42.917 E1.89267
G1 X92.379 Y42.826 E1.90461
G1 X92.294 Y42.747 E1.91344
G1 X92.2 Y42.636 E1.9245
G1 X92.069 Y42.404 E1.94477
G1 X91.987 Y41.997 E1.97635
G1 X91.983 Y41.525 E2.01225
G1 X88.01 Y41.525 E2.31445
G1 X88.005 Y42.004 E2.35088
G1 X87.923 Y42.408 E2.38224
G1 X87.793 Y42.639 E2.4024
G1 X87.698 Y42.75 E2.41351
G1 X87.614 Y42.829 E2.42228
G1 X87.487 Y42.92 E2.43417
G1 X87.318 Y43.005 E2.44856
G1 X87.107 Y43.064 E2.46522
G1 X86.871 Y43.081 E2.48322
G1 X86.404 Y43.056 E2.51879
G1 X85.894 Y43.094 E2.55769
G1 X85.739 Y43.124 E2.5697
G1 X85.307 Y43.269 E2.60436
G1 X85.141 Y43.347 E2.61831
G1 X84.783 Y43.568 E2.65031
G1 X84.615 Y43.706 E2.66685
G1 X84.333 Y43.991 E2.69735
G1 F3000 E-3.30265
G1 F240 Z0.6
G0 F6000 X87.296 Y50.585 Z0.6
;TYPE:WALL-OUTER
G1 F240 Z0.2
G1 F3000 E2.69735
G1 F900 X92.704 Y50.585 E3.10869
G1 X92.717 Y49.388 E3.19974
G1 X92.744 Y49.253 E3.21022
G1 X92.787 Y49.176 E3.21692
G1 X92.847 Y49.113 E3.22354
G1 X92.946 Y49.054 E3.23231
G1 X93.016 Y49.034 E3.23784
G1 X93.1 Y49.029 E3.24425
G1 X93.6 Y49.056 E3.28233
G1 X94.203 Y49.011 E3.32833
G1 X94.442 Y48.964 E3.34685
G1 X94.96 Y48.79 E3.38842
G1 X95.193 Y48.68 E3.40801
G1 X95.649 Y48.395 E3.44892
G1 X95.875 Y48.214 E3.47094
G1 X96.205 Y47.877 E3.50682
G1 X96.415 Y47.603 E3.53307
G1 X96.648 Y47.213 E3.56763
G1 X96.79 Y46.885 E3.59482
G1 X96.918 Y46.47 E3.62785
G1 X96.982 Y46.108 E3.65581
G1 X97.008 Y45.693 E3.68744
G1 X96.982 Y45.276 E3.71922
G1 X96.918 Y44.914 E3.74718
G1 X96.791 Y44.499 E3.78019
G1 X96.645 Y44.168 E3.80771
G1 X96.414 Y43.783 E3.84186
G1 X96.212 Y43.514 E3.86745
G1 X95.872 Y43.171 E3.90418
G1 X95.64 Y42.984 E3.92685
G1 X95.205 Y42.708 E3.96603
G1 X94.953 Y42.59 E3.9872
G1 X94.443 Y42.42 E4.02809
G1 X94.202 Y42.373 E4.04676
G1 X93.641 Y42.328 E4.08957
G1 X93.044 Y42.35 E4.13501
G1 X92.942 Y42.326 E4.14298
G1 X92.843 Y42.268 E4.15171
G1 X92.784 Y42.204 E4.15833
G1 X92.74 Y42.127 E4.16508
G1 X92.713 Y41.991 E4.17562
G1 X92.703 Y40.799 E4.26629
G1 X87.292 Y40.799 E4.67787
G1 X87.279 Y41.996 E4.76892
G1 X87.252 Y42.131 E4.77939
G1 X87.209 Y42.208 E4.7861
G1 X87.107 Y42.302 E4.79665
G1 X87.05 Y42.33 E4.80148
G1 X86.98 Y42.35 E4.80702
G1 X86.896 Y42.355 E4.81342
G1 X86.396 Y42.328 E4.85151
G1 X85.797 Y42.373 E4.8972
G1 X85.553 Y42.42 E4.9161
G1 X85.036 Y42.594 E4.95759
G1 X84.794 Y42.708 E4.97793
G1 X84.36 Y42.976 E5.01673
G1 X84.125 Y43.169 E5.03986
G1 X83.783 Y43.515 E5.07687
G1 X83.586 Y43.775 E5.10168
G1 X83.348 Y44.179 E5.13734
G1 X83.209 Y44.492 E5.16339
G1 X83.078 Y44.918 E5.19729
G1 X83.014 Y45.276 E5.22496
G1 X82.988 Y45.699 E5.25719
G1 X83.013 Y46.104 E5.28806
G1 X83.078 Y46.466 E5.31603
G1 X83.209 Y46.889 E5.34971
G1 X83.348 Y47.209 E5.37625
G1 X83.586 Y47.604 E5.41133
G1 X83.788 Y47.874 E5.43698
G1 X84.128 Y48.217 E5.47371
G1 X84.359 Y48.403 E5.49627
G1 X84.792 Y48.673 E5.53508
G1 X85.045 Y48.794 E5.55641
G1 X85.549 Y48.964 E5.59687
G1 X85.797 Y49.011 E5.61607
G1 X86.355 Y49.056 E5.65865
G1 X86.904 Y49.033 E5.70045
G1 X86.984 Y49.038 E5.70654
G1 X87.054 Y49.058 E5.71208
G1 X87.153 Y49.116 E5.72081
G1 X87.212 Y49.18 E5.72743
G1 X87.256 Y49.256 E5.73411
G1 X87.283 Y49.392 E5.74465
G1 X87.296 Y50.585 E5.8354
G1 F3000 E-0.1646
G1 F240 Z0.6
G0 F6000 X88.086 Y43.104 Z0.6
;TYPE:SKIN
G1 F240 Z0.2
G1 F3000 E5.8354
G1 F900 X88.217 Y42.952 E5.85067
G1 X88.386 Y42.652 E5.87686
G1 X88.424 Y42.549 E5.88521
G1 X88.524 Y42.051 E5.92384
G1 X91.462 Y42.053 E6.14731
G1 X91.564 Y42.541 E6.18523
G1 X91.603 Y42.646 E6.19375
G1 X91.779 Y42.955 E6.2208
G1 X91.924 Y43.123 E6.23768
G1 X92.039 Y43.232 E6.24973
G1 X92.233 Y43.368 E6.26776
G1 X92.448 Y43.475 E6.28602
G1 X92.766 Y43.573 E6.31133
G1 X92.913 Y43.596 E6.32265
G1 X93.119 Y43.603 E6.33833
G1 X93.62 Y43.584 E6.37646
G1 X94.029 Y43.617 E6.40767
G1 X94.121 Y43.633 E6.41478
G1 X94.489 Y43.758 E6.44434
G1 X94.597 Y43.808 E6.45339
G1 X94.907 Y44.008 E6.48145
G1 X95.037 Y44.111 E6.49407
G1 X95.256 Y44.33 E6.51762
G1 X95.366 Y44.479 E6.53171
G1 X95.524 Y44.74 E6.55492
G1 X95.611 Y44.94 E6.57151
G1 X95.697 Y45.213 E6.59328
G1 X95.73 Y45.417 E6.609
G1 X95.748 Y45.685 E6.62943
G1 X95.73 Y45.968 E6.651
G1 X95.694 Y46.17 E6.6666
G1 X95.61 Y46.443 E6.68833
G1 X95.523 Y46.646 E6.70513
G1 X95.376 Y46.893 E6.72699
G1 X95.254 Y47.048 E6.742
G1 X95.029 Y47.281 E6.76663
G1 X94.923 Y47.368 E6.77706
G1 X94.58 Y47.581 E6.80777
G1 X94.495 Y47.622 E6.81495
G1 X94.112 Y47.749 E6.84564
G1 X94.028 Y47.767 E6.85218
G1 X93.597 Y47.796 E6.88503
G1 X93.176 Y47.773 E6.9171
G1 X92.932 Y47.778 E6.93567
G1 X92.822 Y47.791 E6.94409
G1 X92.482 Y47.886 E6.97094
G1 X92.261 Y47.995 E6.98969
G1 X92.039 Y48.149 E7.01024
G1 X91.917 Y48.265 E7.02304
G1 X91.779 Y48.428 E7.03929
G1 X91.608 Y48.724 E7.06529
G1 X91.568 Y48.831 E7.07398
G1 X91.467 Y49.328 E7.11255
G1 X88.529 Y49.328 E7.33603
G1 X88.428 Y48.832 E7.37453
G1 X88.388 Y48.724 E7.38329
G1 X88.217 Y48.428 E7.40929
G1 X88.071 Y48.26 E7.42622
G1 X87.952 Y48.152 E7.43844
G1 X87.787 Y48.03 E7.45405
G1 X87.517 Y47.893 E7.47708
G1 X87.202 Y47.802 E7.50202
G1 X86.877 Y47.781 E7.52679
G1 X86.372 Y47.8 E7.56523
G1 X85.98 Y47.768 E7.59515
G1 X85.867 Y47.744 E7.60393
G1 X85.51 Y47.625 E7.63256
G1 X85.394 Y47.572 E7.64226
G1 X85.085 Y47.376 E7.67009
G1 X84.964 Y47.278 E7.68193
G1 X84.739 Y47.053 E7.70614
G1 X84.634 Y46.912 E7.71951
G1 X84.461 Y46.627 E7.74487
G1 X84.39 Y46.455 E7.75902
G1 X84.298 Y46.165 E7.78216
G1 X84.261 Y45.96 E7.79801
G1 X84.244 Y45.691 E7.81851
G1 X84.262 Y45.417 E7.83939
G1 X84.298 Y45.219 E7.8547
G1 X84.389 Y44.919 E7.87855
G1 X84.46 Y44.758 E7.89193
G1 X84.629 Y44.469 E7.9174
G1 X84.731 Y44.339 E7.92996
G1 X84.965 Y44.098 E7.95552
G1 X85.086 Y44.002 E7.96726
G1 X85.398 Y43.808 E7.99521
G1 X85.504 Y43.758 E8.00412
G1 X85.879 Y43.632 E8.03421
G1 X85.969 Y43.613 E8.04121
G1 X86.401 Y43.584 E8.07414
G1 X86.831 Y43.603 E8.10688
G1 X87.202 Y43.582 E8.13515
G1 X87.51 Y43.494 E8.15951
G1 X87.732 Y43.387 E8.17826
G1 X87.952 Y43.232 E8.19873
G1 X88.086 Y43.104 E8.21282
G1 F3000 E2.21282
G1 F240 Z0.6
G0 F6000 X94.462 Y44.152 Z0.6
G1 F240 Z0.2
G1 F3000 E8.21282
G1 F900 X95.177 Y44.867 E8.28973
G0 F6000 X95.346 Y46.063
G1 F900 X93.245 Y43.963 E8.51568
G1 F3000 E2.51568
G1 F240 Z0.6
G0 F6000 X90.67 Y42.414 Z0.6
G1 F240 Z0.2
G1 F3000 E8.51568
G1 F900 X95.017 Y46.762 E8.98334
G0 F6000 X94.455 Y47.226
G1 F900 X89.643 Y42.414 E9.50096
G0 F6000 X88.787 Y42.585
G1 F900 X93.631 Y47.428 E10.02197
G0 F6000 X92.638 Y47.462
G1 F900 X88.432 Y43.257 E10.47435
G0 F6000 X87.872 Y43.723
G1 F900 X91.93 Y47.781 E10.91086
G0 F6000 X91.431 Y48.309
M104 S210
G1 F900 X87.076 Y43.954 E11.37932
G0 F6000 X86.066 Y43.971
G1 F900 X91.061 Y48.965 E11.91658
G0 F6000 X90.034 Y48.965
G1 F900 X85.34 Y44.271 E12.4215
G1 F3000 E6.4215
G1 F240 Z0.6
G0 F6000 X88.772 Y48.73 Z0.6
G1 F240 Z0.2
G1 F3000 E12.4215
G1 F900 X89.008 Y48.966 E12.44689
G1 F3000 E6.44689
G1 F240 Z0.6
G0 F6000 X87.576 Y47.534 Z0.6
G1 F240 Z0.2
G1 F3000 E12.44689
G1 F900 X84.851 Y44.809 E12.74001
G0 F6000 X84.613 Y45.598
G1 F900 X86.448 Y47.433 E12.9374
G1 F3000 E6.9374
G1 F240 Z0.6
;MESH:NONMESH
G0 F6000 X83.998 Y45.393 Z0.6
;TIME_ELAPSED:25.353522
;LAYER:1
M140 S70
M106 S12.8
;MESH:USBC_CAP.stl
G0 F7500 X83.998 Y45.393 Z0.8
;TYPE:WALL-INNER
G1 F240 Z0.4
G1 F3000 E12.9374
G1 F1125 X83.981 Y45.692 E12.95219
G1 X83.998 Y45.988 E12.96684
G1 X84.042 Y46.229 E12.97894
G1 X84.143 Y46.552 E12.99565
G1 X84.23 Y46.757 E13.00665
G1 X84.409 Y47.058 E13.02395
G1 X84.535 Y47.222 E13.03416
G1 X84.781 Y47.473 E13.05152
G1 X84.93 Y47.592 E13.06094
G1 X85.283 Y47.814 E13.08154
G1 X85.402 Y47.87 E13.08803
G1 X85.807 Y48.006 E13.10914
G1 X85.93 Y48.03 E13.11533
G1 X86.444 Y48.072 E13.1408
G1 X86.708 Y48.083 E13.15385
G1 X87.023 Y48.126 E13.16955
G1 X87.3 Y48.219 E13.18398
G1 X87.523 Y48.338 E13.19647
G1 X87.695 Y48.462 E13.20694
G1 X87.873 Y48.634 E13.21916
G1 X88.117 Y48.995 E13.24069
G1 X88.257 Y49.586 E13.27068
G1 X91.736 Y49.586 E13.44252
G1 X91.876 Y48.988 E13.47285
G1 X92.119 Y48.627 E13.49434
G1 X92.3 Y48.451 E13.50681
G1 X92.476 Y48.324 E13.51753
G1 X92.705 Y48.203 E13.53033
G1 X92.989 Y48.111 E13.54507
G1 X93.212 Y48.076 E13.55622
G1 X93.538 Y48.069 E13.57232
G1 X94.072 Y48.03 E13.59877
G1 X94.19 Y48.006 E13.60472
G1 X94.585 Y47.874 E13.62529
G1 X94.735 Y47.803 E13.63348
G1 X95.06 Y47.601 E13.65238
G1 X95.206 Y47.482 E13.66169
G1 X95.466 Y47.217 E13.68002
G1 X95.579 Y47.067 E13.6893
G1 X95.777 Y46.733 E13.70848
G1 X95.86 Y46.548 E13.71849
G1 X95.956 Y46.238 E13.73452
G1 X95.999 Y45.992 E13.74686
G1 X96.019 Y45.685 E13.76205
G1 X96.002 Y45.4 E13.77615
G1 X95.955 Y45.147 E13.78886
G1 X95.86 Y44.838 E13.80483
G1 X95.766 Y44.629 E13.81615
G1 X95.592 Y44.331 E13.83319
G1 X95.467 Y44.167 E13.84338
G1 X95.211 Y43.906 E13.86143
G1 X95.063 Y43.788 E13.87078
G1 X94.722 Y43.574 E13.89067
G1 X94.595 Y43.515 E13.89758
G1 X94.183 Y43.377 E13.91904
G1 X94.066 Y43.353 E13.92494
G1 X93.567 Y43.313 E13.94967
G1 X93.212 Y43.3 E13.96721
G1 X92.989 Y43.265 E13.97836
G1 X92.705 Y43.173 E13.99311
G1 X92.476 Y43.052 E14.0059
G1 X92.3 Y42.925 E14.01662
G1 X92.122 Y42.752 E14.02888
G1 X91.877 Y42.39 E14.05047
G1 X91.738 Y41.798 E14.0805
G1 X88.26 Y41.798 E14.25229
G1 X88.12 Y42.396 E14.28262
G1 X87.877 Y42.757 E14.30412
G1 X87.695 Y42.934 E14.31665
G1 X87.523 Y43.058 E14.32713
G1 X87.3 Y43.177 E14.33961
G1 X87.023 Y43.27 E14.35404
G1 X86.708 Y43.313 E14.36975
G1 X86.458 Y43.314 E14.38209
G1 X85.927 Y43.354 E14.40839
G1 X85.811 Y43.377 E14.41424
G1 X85.405 Y43.513 E14.43538
G1 X85.285 Y43.57 E14.44195
G1 X84.929 Y43.79 E14.46262
G1 X84.795 Y43.9 E14.47118
G1 X84.526 Y44.175 E14.49018
G1 X84.411 Y44.325 E14.49951
G1 X84.229 Y44.629 E14.51701
G1 X84.134 Y44.844 E14.52862
G1 X84.043 Y45.14 E14.54392
G1 X83.998 Y45.393 E14.55661
G1 F3000 E8.55661
G1 F240 Z0.8
G0 F7500 X96.364 Y47.038 Z0.8
G1 F240 Z0.4
G1 F3000 E14.55661
G1 F1125 X96.479 Y46.782 E14.57047
G1 X96.599 Y46.392 E14.59063
G1 X96.655 Y46.07 E14.60677
G1 X96.68 Y45.688 E14.62568
G1 X96.659 Y45.32 E14.64388
G1 X96.597 Y44.989 E14.66052
G1 X96.479 Y44.605 E14.68036
G1 X96.354 Y44.327 E14.69541
G1 X96.141 Y43.962 E14.71628
G1 X95.966 Y43.734 E14.73048
G1 X95.654 Y43.416 E14.75248
G1 X95.445 Y43.249 E14.7657
G1 X95.039 Y42.994 E14.78938
G1 X94.842 Y42.901 E14.80014
G1 X94.354 Y42.738 E14.82555
G1 X94.16 Y42.698 E14.83533
G1 X93.602 Y42.654 E14.86298
G1 X93.269 Y42.643 E14.87944
G1 X93.135 Y42.622 E14.88613
G1 X92.965 Y42.566 E14.89497
G1 X92.828 Y42.494 E14.90262
G1 X92.722 Y42.418 E14.90906
G1 X92.615 Y42.314 E14.91643
G1 X92.469 Y42.097 E14.92935
G1 X92.366 Y41.659 E14.95157
G1 X92.364 Y41.138 E14.97731
G1 X87.632 Y41.138 E15.21103
G1 X87.63 Y41.667 E15.23715
G1 X87.528 Y42.103 E15.25927
G1 X87.383 Y42.32 E15.27216
G1 X87.273 Y42.426 E15.2797
G1 X87.17 Y42.501 E15.286
G1 X87.036 Y42.572 E15.29349
G1 X86.87 Y42.628 E15.30214
G1 X86.681 Y42.654 E15.31156
G1 X86.433 Y42.654 E15.32381
G1 X85.836 Y42.699 E15.35338
G1 X85.64 Y42.739 E15.36326
G1 X85.157 Y42.9 E15.38841
G1 X84.968 Y42.99 E15.39875
G1 X84.545 Y43.252 E15.42332
G1 X84.349 Y43.412 E15.43582
G1 X84.026 Y43.742 E15.45863
G1 X83.865 Y43.954 E15.47178
G1 X83.641 Y44.325 E15.49318
G1 X83.514 Y44.614 E15.50877
G1 X83.401 Y44.985 E15.52793
G1 X83.342 Y45.316 E15.54453
G1 X83.32 Y45.692 E15.56314
G1 X83.341 Y46.066 E15.58164
G1 X83.4 Y46.387 E15.59776
G1 X83.523 Y46.781 E15.61815
G1 X83.641 Y47.057 E15.63297
G1 X83.862 Y47.428 E15.6543
G1 X84.035 Y47.655 E15.6684
G1 X84.338 Y47.964 E15.68977
G1 X84.547 Y48.131 E15.70299
G1 X84.965 Y48.394 E15.72738
G1 X85.155 Y48.483 E15.73774
G1 X85.636 Y48.645 E15.76281
G1 X85.838 Y48.685 E15.77298
G1 X86.404 Y48.731 E15.80103
G1 X86.681 Y48.742 E15.81472
G1 X86.87 Y48.768 E15.82414
G1 X87.036 Y48.824 E15.8328
G1 X87.17 Y48.895 E15.84029
G1 X87.273 Y48.97 E15.84658
G1 X87.38 Y49.073 E15.85391
G1 X87.527 Y49.29 E15.86686
G1 X87.63 Y49.729 E15.88913
G1 X87.632 Y50.246 E15.91467
G1 X92.364 Y50.246 E16.14839
G1 X92.366 Y49.717 E16.17451
G1 X92.468 Y49.28 E16.19668
G1 X92.614 Y49.064 E16.20956
G1 X92.722 Y48.958 E16.21703
G1 X92.828 Y48.882 E16.22347
G1 X92.965 Y48.81 E16.23112
G1 X93.135 Y48.754 E16.23996
G1 X93.269 Y48.733 E16.24666
G1 X93.563 Y48.729 E16.26118
G1 X94.161 Y48.685 E16.29079
G1 X94.36 Y48.645 E16.30082
G1 X94.831 Y48.487 E16.32536
G1 X95.051 Y48.384 E16.33736
G1 X95.444 Y48.14 E16.3602
G1 X95.652 Y47.971 E16.37344
G1 X95.967 Y47.648 E16.39572
G1 X96.128 Y47.435 E16.40891
G1 X96.364 Y47.038 E16.43172
G1 F3000 E10.43172
G1 F240 Z0.8
G0 F7500 X93.109 Y41.876 Z0.8
;TYPE:WALL-OUTER
G1 F240 Z0.4
G1 F3000 E16.43172
G1 F1125 X93.06 Y41.803 E16.43606
G1 X93.026 Y41.657 E16.44347
G1 X93.022 Y40.478 E16.5017
G1 X86.974 Y40.478 E16.80042
G1 X86.97 Y41.665 E16.85905
G1 X86.936 Y41.811 E16.86645
G1 X86.888 Y41.883 E16.87073
G1 X86.817 Y41.943 E16.87532
G1 X86.717 Y41.986 E16.88069
G1 X86.654 Y41.994 E16.88383
G1 X86.409 Y41.994 E16.89593
G1 X85.746 Y42.044 E16.92877
G1 X85.47 Y42.1 E16.94268
G1 X84.909 Y42.287 E16.97189
G1 X84.651 Y42.41 E16.986
G1 X84.161 Y42.714 E17.01449
G1 X83.903 Y42.924 E17.03092
G1 X83.526 Y43.309 E17.05753
G1 X83.318 Y43.582 E17.07448
G1 X83.054 Y44.021 E17.09978
G1 X82.894 Y44.384 E17.11938
G1 X82.758 Y44.83 E17.14241
G1 X82.685 Y45.239 E17.16293
G1 X82.659 Y45.692 E17.18534
G1 X82.685 Y46.144 E17.2077
G1 X82.758 Y46.545 E17.22783
